/* XPM */
static char *bluewallswastika2[] = {
/* columns rows colors chars-per-pixel */
"64 64 38 1 ",
"  c black",
". c #00001C",
"X c #00002C",
"o c #000034",
"O c #400000",
"+ c #4C0000",
"@ c #590000",
"# c #650000",
"$ c #710000",
"% c #000040",
"& c #00004C",
"* c #000059",
"= c #000065",
"- c #000071",
"; c #00007D",
": c gray49",
"> c #858500",
", c #9D9D00",
"< c #B6AE00",
"1 c #CEC600",
"2 c #E6DA00",
"3 c #FFF620",
"4 c #000089",
"5 c #000099",
"6 c #0000A5",
"7 c #0000AA",
"8 c #0000B2",
"9 c #0000BE",
"0 c #0000CA",
"q c #0000D6",
"w c #0000E2",
"e c #0000EE",
"r c #8D8D8D",
"t c gray60",
"y c #AAAAAA",
"u c #B6B6B6",
"i c gray76",
"p c #D2D2D2",
/* pixels */
"00000weeeww= 69eeeqeweeeeeweee9= q9eweeeeeeeeqq= qwqew4 =58w0ew9",
"99000weqew7* *8e079q0eeewweee94X 70eeeeew9989w9* 69qeq4 &648qe05",
"0990q8889w95 ;qee0w050qeeeeew64% 8qeeeqw78qeee9; 5qee84 6e99w04;",
"q999qw97475; 49ee7ww0wqeweq54;6; 9weqq0q9wqq8w55 70eqw4 40qwe66;",
"899076-5785= 77qqwweww0875-;79w8 qwee0860weeww-4 48q005 =88q055-",
"8=4=;-;095== 79eewweweq8q90weew; 9qw95wewewq6944 50qw7; -4875=&=",
"4;-;458095&& -860wqq9w0wwwwww0q- 8568007497864-- &0474- %%4;-=44",
"86=78wqw86&* ;eee08weeeee0qeq99* -*4;;==-45=-;6- &-;4-% &=--6;5;",
"0859qq5q45&& 50986wqwe8qeqqe7w9=                        -;=4799;",
"85558780;5*% *6qw9e0qq0eeqwe005= 74985944* 575&&58555-X &;45565;",
"w959w95756** &$$$$$$$$$$$$$$$$$$$$$$$$$$$$$$$$$$$$$$04X =5698855",
"8757846744-4 -$333333333333333333333333333333333333$q5; -77w9854",
"465744454--% *$3$$$$$$$$$$$$$$$$$$$$$$$$$$$$$$$$$$3$55- -790454*",
"=*=*--*;=&&. =$3$$$$$$$$$$$$$$$$$$$$$$$$$$$$$$$$$$3$-5= -45-&&%*",
"==&==%=-*&X. %$3$ppp$ppp$p$$p$ppp$p$$p$p$$p$ppp$p$3$*44 =**&X**5",
"              $3$p$p$p$$$p$$p$$p$$p$$p$pp$p$p$$$p$3$%-5         ",
"555555746765;*$3$iii$i$$$iiii$$i$$i$$i$i$ii$i$$$i$3$&-5 4545=--4",
"6555698564;985#3#i#i#i###i##i##i##i##i#i##i#i#i###3#*44 ;777-874",
"0676086777097-#3#i#i#iii#i##i##i##iiii#i##i#iii#i#3#*== -96748;6",
"54645668977=**#3##################################3#%-5 ;5668666",
"778888575;;*--#3##################################3#X*- -6656486",
";;=4;4;;&*&%-=#3##################################3#%&; -;-;;*5;",
"-445-;*-*;==;-#2#######uuuu####uuuuuuuuuuuu#######2#&%= -***=*=*",
"             .#2#######uuuu####uuuuuuuuuuuu#######2#&o*         ",
" %-%====-% *=-#2#######uuuu####uuuuuuuuuuuu#######2#&%* *=;5754*",
" -54664;;% -45@2@@@@@@@uuuu@@@@uuuuuuuuuuuu@@@@@@@2@*%% &=5854;%",
" ;-4;554;* &45@1@@@@@@@uuuu@@@@uuuu@@@@@@@@@@@@@@@1@&%. X;55-44&",
" 4554774-& -56@1@@@@@@@yyyy@@@@yyyy@@@@@@@@@@@@@@@1@o%X %45;56;%",
" 45544-=-& &-=@1@@@@@@@yyyy@@@@yyyy@@@@@@@@@@@@@@@1@X=% X-666--&",
" *7=;76-;X *=&@1@@@@@@@yyyy@@@@yyyy@@@@@@@@@@@@@@@1@%*& X;5;5;-&",
" *5-7;*--X **-@1@@@@@@@yyyyyyyyyyyyyyyyyyyy@@@@@@@1@o*= %*=-**&*",
" ;65;444%X ===@1@@@@@@@yyyyyyyyyyyyyyyyyyyy@@@@@@@1@X&X XX*&%&%%",
" -4;;--*%* ---@1@@@@@@@tttttttttttttttttttt@@@@@@@1@            ",
" %**%%&%&& %X*@<@@@@@@@tttttttttttttttttttt@@@@@@@<@.&*--- %&*==",
" XX%%%&&&. X.%+<+++++++++++++++tttt++++tttt+++++++<+%-44-* ==4;=",
"              +<+++++++++++++++tttt++++tttt+++++++<+*-44;& ==4;-",
" *&*%==-=-=&==+<+++++++++++++++tttt++++tttt+++++++<+*445=X --;4=",
" ==-*=4-;5;-54+<+++++++++++++++rrrr++++rrrr+++++++<+&=-;*X ==-;-",
" &%*=&&*--*=;=+<+++++++rrrrrrrrrrrr++++rrrr+++++++<+&==-=X %=5;-",
" &&=-*%X&==-=*+,+++++++rrrrrrrrrrrr++++rrrr+++++++,+X&=;-X -=-*-",
" *-44-*%&;-44;O,OOOOOOOrrrrrrrrrrrrOOOOrrrrOOOOOOO,OX-;4&X &%4;-",
" *=--=-%%&&-==O,OOOOOOO::::::::::::OOOO::::OOOOOOO,OX=*&X% -;5*=",
" %&*&&*******%O,OOOOOOOOOOOOOOOOOOOOOOOOOOOOOOOOOO,OX&%XX% &=-;=",
" %%&&&%%==*&*&O,OOOOOOOOOOOOOOOOOOOOOOOOOOOOOOOOOO,OXoXXX* =**==",
" **=-*&%*&*&&%O>OOOOOOOOOOOOOOOOOOOOOOOOOOOOOOOOOO>OX=*%%X %*;4=",
" %*&%%%X%%&%X%O>OOOOOOOOOOOOOOOOOOOOOOOOOOOOOOOOOO>OX&&%X. &=*=&",
" XX%X%%X%XXXX.O>OOOOOOOOOOOOOOOOOOOOOOOOOOOOOOOOOO>O.oXX.  .X.XX",
"              O>>>>>>>>>>>>>>>>>>>>>>>>>>>>>>>>>>>>O            ",
"&%%%&&% *4=---OOOOOOOOOOOOOOOOOOOOOOOOOOOOOOOOOOOOOO.o*&%%&X&=**",
"-4=4-=% -4=;==&%...    ....     ....   .... .      .X%=*=-;-=-*=",
"-4=4-=. *=*%&*ooX.X.. oXXXXXX. o%%%%. X%%XooX.. .Xo%%&&&*=*&=-;-",
"--;--=X **&&*%%%&%%X% oo&&**%X &=---o &&-**&o.X Xo%**-&&&&**==--",
";---;-% =&&%%X&&&&XXX X*=-=%XX *--;=% &*;=**&.X X=--=-==-=--=-;-",
"*&=&*=% %XXX%%&%&&*X. %===*%%% &-=-*& *-=*%&%.. %*=**-==---;=-;-",
";;=;;*X               &*&-=X%X =-=;*% %--=&&%.X %&=&&==*=--=-==-",
"*=;=*&% .X%&&*%&%&%XX =*&=&X&X *--;*% &*&X%%XXX X%**&%&&&%%=%%&*",
"%&*&%XX X*=-=-*=*=&X% *&*&%%&%.*==-*% XXX%%=*XX %X%&&%**-=-**&&%",
"&%%%&&& %****==*-&%X% %%%%&=*& &&-;=% XX***=*XX XX&&%=4;**=-====",
"*=-=*%X &&&&&*&&=&%X% %X*=-=&& &=--*X %**=-=*XX &**=---=--;-==--",
"*=&=*XX XXXX%%*&*&&X% %&;-;=*% &==-*X *;;-=-=%X %=;-*=--**-=&===",
"=;*;=&& ..X%%&&%&%X.X &==*==*X %*=*%X &===;=%XX ===**==*&***&***",
"=-*-=&% XX%&&%%%&XXX% *%&*&&&X &*;*&X **&X%XXX% X&-*&%&&%&*&%%&&",
"X&=&XXX XX&&&%%%%%XXX %X%%X%X. X**XXX %%XX%%%XX X%&&%%%%X%XXX%%%",
"XX%XX&& &%XX...XXXXX.          .XXXX%           X..XXXXXXX.XXXXX"
};
