/* XPM */
static char *bluedoor[] = {
/* columns rows colors chars-per-pixel */
"64 64 29 1 ",
"  c black",
". c #00001C",
"X c gray11",
"o c #00002C",
"O c #202020",
"+ c #282828",
"@ c #2C2C2C",
"# c gray19",
"$ c #000040",
"% c #00004C",
"& c #000059",
"* c #000065",
"= c #000071",
"- c #00007D",
"; c #484848",
": c #555555",
"> c #5D5D5D",
", c #656565",
"< c #000089",
"1 c #000099",
"2 c #0000A5",
"3 c #0000AA",
"4 c #0000B2",
"5 c #0000BE",
"6 c #0000CA",
"7 c #0000D6",
"8 c #0000E2",
"9 c #0000EE",
"0 c gray60",
/* pixels */
"66666899988* 259997989999989995* 75989999999977* 78798< *1486985",
"55666897983& &4963576999889995<o 36999998554585& 25797< %2<47961",
"655674445851 -7996861679999982<$ 47999783479995- 17994< 295586<-",
"75557853<31- <59938868798971<-2- 589776758774811 36978< <678922-",
"455632=1341* 3377889886431=-3584 7899642689988=< <47661 *447611=",
"4*<*-=-651** 359988989747568998- 5785189898725<< 16783- =<431*%*",
"<-=-<14651%< =42143758688888824& 4124663<5342<== %6<3<= $$<-=*<<",
"42*3487842=< &123<=111111-<1<-1% =&<--**=<1*=-2= %=-<=$ %*==2-1-",
"64157717<1*<                                            =-*<355-",
"41114346-1--  #######################################   %-<1121-",
"8515851312&&  #0,@@###0,@@###0,@@###0,@@###0,@@###0,@   *1254411",
"43134<23<<=<  #,;O@###,;O@###,;O@###,;O@###,;O@###,;O   =338541<",
"<213<<<1<==-  #@OO@###@OO@###@OO@###@OO@###@OO@###@OO   =356<1<&",
"*&*&==&-*%%-  #@@@@###@@@@###@@@@###@@@@###@@@@###@@@   =<1=%%$&",
"**%**$*=&%=&  ##########                  X##########   *&&%o&&1",
"              ########## #################;##########           ",
"1111113<2321& ########## #   ,#    ,#   ,#;########## *-11<1*==<",
"211125412<-5- ########## #   ,#    ,#   ,#;########## -12333=43<",
"623264233365- #0,@@##### #   ,#    ,#   ,#;#######0,@ *11523<4-2",
"1<2<1224533** #,;O@##### #   ,#    ,#   ,#;#######,;O *1<1224222",
"334444131--$* #@OO@##### #   ,#    ,#   ,#;#######@OO %1<2212<42",
"--*<-<--%&%$* #@@@@##### #   ,#    ,#   ,#;#######@@@ &*o-=--&1-",
"=<<1=-&=&-*** ########## #   ,#    ,#   ,#;########## &=&&&&*&*&",
"              ########## #   ,#    ,#   ,#;##########           ",
" $=$****-=1=% ########## #   :#    :#   :#;########## &=%*1231<&",
" =1<22<12&4<& ########## #   :#    :#   :#;########## <112341<-$",
" -=<-113<<1=% #0,@@##### #   :#    :#   :#;#######0,@ <41111=<<%",
" <11<331<%<&$ #,;O@##### #   :#    :#   :#;#######,;O <3211-12-$",
" <11<<=**%==% #@OO@##### #   :#    :#   :#;#######@OO <21<222==%",
" &3*-32=$o=<o #;;;;;;;X@ #   :#    :#   :#;#######@@@ <<122-1-=%",
" &1=3-&&*o*<o #;###### O #;;;;#;;;;;#;;;;#;########## -=***=&&%&",
" -21-<<1=o==$ #;#X##X# X #################;##########  $$o&%$%$$",
" =<--===$*<&& #;###### XX;;;;;;;;;;;;;;;;;;##########           ",
" $&&$$%$%$o-o #;## :## X+############################ *=== $%&**",
" oo$$$%%% $o$ #;## ,## X+#########################0,@ *<=& **<-*",
"              #;## :## X+#########################,;O *1-% **<-=",
" &%&$**=*=*%$ #;##++## X+#########################@OO =1*o ==-<*",
" **=&*<=-1-=% #;###### X+#########################@@@ =-*o **=-=",
" %$&*%%&==&$o #;# ## # X+############################ ===o $*1-=",
" %%*=&$o%**%o #;###### X+############################ *<=$ =*=&=",
" &=<<=&$%-=<$ #X       X+############################ *1&o %$<-=",
" &*==*=$$%%=$ #@OXXXXXXO@############################ -%o$ =-1&*",
" $%&%%&&&&&&o #0>++++++@@#########################0,@ *o$$ %*=-*",
" $$%%%$$**&%$ #,;O@###############################,;O &*** *&&**",
" &&*=&%$&%&%$ #@OO@###############################@OO =*&% $&-<*",
" $&%$$$o$$%$o #@@@@###############################@@@ *%&o %*&*%",
" oo$o$$o$oo.o ####################################### %$$  .o.oo",
"              #######################################           ",
"%$$$%%$ $<&&. ####################################### .o$$%o%*&&",
"=<*<=*$ =<*-$ ####################################### o&*=-=*=&*",
"=<*<=*. &*&$o ####################################### $$&*&%*=-=",
"==-==*o &&%%o #0,@@#####                  X#######0,@ $%%%&&**==",
"-===-=$ *%%o. #,;O@##### #################;#######,;O &%=*==*=-=",
"&%*%&*$ $ooo$ #@OO@##### #################;#######@OO $&===-*=-=",
"--*--&o       #@@@@##### #################;#######@@@ o$*==*=**=",
"&*-*&%$ .o$%o ########## #################;########## o$%$$*$$%&",
"$%&%$oo o&*=o ########## #################;########## o%=*=&&%%$",
"%$$$%%% $&&&o ########## #################;########## o%&&*=****",
"&*=*&$o %%%%o ########## #################;########## $&==-=**==",
"&*%*&oo oooo. ########## #################;########## o&&&=*%***",
"*-&-*%% ..o$o #0,@@##0,@ #################;#0,@@##0,@ $$%&&&%&&&",
"*=&=*%$ oo$$o #,;O@##,;O #################;#,;O@##,;O $$$%&%$$%%",
"o%*%ooo oo%$o #@OO@##@OOX;;;;;;;;;;;;;;;;;;#@OO@##@OO ooo$ooo$$$",
"oo$oo%% %$ooo                                         oooo.ooooo"
};
