/* XPM */
static char *bluewallswastika1[] = {
/* columns rows colors chars-per-pixel */
"64 64 38 1 ",
"  c black",
". c #00001C",
"X c #00002C",
"o c #000034",
"O c #400000",
"+ c #4C0000",
"@ c #590000",
"# c #650000",
"$ c #710000",
"% c #000040",
"& c #00004C",
"* c #000059",
"= c #000065",
"- c #000071",
"; c #00007D",
": c gray49",
"> c #858500",
", c #9D9D00",
"< c #B6AE00",
"1 c #CEC600",
"2 c #E6DA00",
"3 c #FFF620",
"4 c #000089",
"5 c #000099",
"6 c #0000A5",
"7 c #0000AA",
"8 c #0000B2",
"9 c #0000BE",
"0 c #0000CA",
"q c #0000D6",
"w c #0000E2",
"e c #0000EE",
"r c #8D8D8D",
"t c gray60",
"y c #AAAAAA",
"u c #B6B6B6",
"i c gray76",
"p c #D2D2D2",
/* pixels */
"00000weeeww= 69eeeqeweeeeeweee9= q9eweeeeeeeeqq= qwqew4 =58w0ew9",
"99000weqew7* *8e079q0eeewweee94X 70eeeeew9989w9* 69qeq4 &648qe05",
"0990q8889w95 ;qee0w050qeeeeew64% 8qeeeqw78qeee9; 5qee84 6e99w04;",
"q999qw97475; 49ee7ww0wqeweq54;6; 9weqq0q9wqq8w55 70eqw4 40qwe66;",
"899076-5785= 77qqwweww0875-;79w8 qwee0860weeww-4 48q005 =88q055-",
"8=4=;-;095== 79eewweweq8q90weew; 9qw95wewewq6944 50qw7; -4875=&=",
"4;-;458095&& -860wqq9w0wwwwww0q- 8568007497864-- &0474- %%4;-=44",
"86=78wqw86&* ;$$$$$$$$$$$$$$$$$$$$$$$$$$$$$$$$$$$$$$4-% &=--6;5;",
"0859qq5q45&& 5$333333333333333333333333333333333333$    -;=4799;",
"85558780;5*% *$3$$$$$$$$$$$$$$$$$$$$$$$$$$$$$$$$$$3$-=X &;45565;",
"w959w95756** &$3$$$$$$$$$$$$$$$$$$$$$$$$$$$$$$$$$$3$-;X =5698855",
"8757846744-4 -$3$$$$$$$$$$$$$$$$$$$$$$$$$$$$$$$$$$3$44; -77w9854",
"465744454--% *$3$$$ppp$p$p$$p$ppp$ppp$p$ppp$ppp$$$3$;5- -790454*",
"=*=*--*;=&&. =$3$$$i$$$i$ii$p$$p$$i$i$i$$i$$$i$$$$3$=5= -45-&&%*",
"==&==%=-*&X. %$3$$$iii$i$i$ii$$i$$ii$$i$$i$$$i$$$$3$*44 =**&X**5",
"              #3###i###i#i##i##i##i#i#i##i###i####3#%-5         ",
"555555746765;*#3###iii#i#i##i##i##i#i#i##i###i####3#&-5 4545=--4",
"6555698564;985#3##################################3#*44 ;777-874",
"0676086777097-#3##################################3#*== -96748;6",
"54645668977=**#3#######iiii####iiiiiiiiiiii#######3#%-5 ;5668666",
"778888575;;*--#3#######iiii####iiiiiiiiiiii#######3#X*- -6656486",
";;=4;4;;&*&%-=#2#######uuuu####uuuuuuuuuuuu#######2#%&; -;-;;*5;",
"-445-;*-*;==;-#2#######uuuu####uuuuuuuuuuuu#######2#&%= -***=*=*",
"             .#2#######uuuu####uuuu###############2#&o*         ",
" %-%====-% *=-#2#######uuuu####uuuu###############2#&%* *=;5754*",
" -54664;;% -45@2@@@@@@@uuuu@@@@uuuu@@@@@@@@@@@@@@@2@*%% &=5854;%",
" ;-4;554;* &45@1@@@@@@@uuuu@@@@uuuu@@@@@@@@@@@@@@@1@&%. X;55-44&",
" 4554774-& -56@1@@@@@@@yyyyyyyyyyyyyyyyyyyy@@@@@@@1@o%X %45;56;%",
" 45544-=-& &-=@1@@@@@@@yyyyyyyyyyyyyyyyyyyy@@@@@@@1@X=% X-666--&",
" *7=;76-;X *=&@1@@@@@@@yyyyyyyyyyyyyyyyyyyy@@@@@@@1@%*& X;5;5;-&",
" *5-7;*--X **-@1@@@@@@@yyyyyyyyyyyyyyyyyyyy@@@@@@@1@o*= %*=-**&*",
" ;65;444%X ===@1@@@@@@@@@@@@@@@yyyy@@@@yyyy@@@@@@@1@X&X XX*&%&%%",
" -4;;--*%* ---@1@@@@@@@@@@@@@@@yyyy@@@@yyyy@@@@@@@1@            ",
" %**%%&%&& %X*@1@@@@@@@@@@@@@@@yyyt@@@@tttt@@@@@@@1@.&*--- %&*==",
" XX%%%&&&. X.%@1@@@@@@@@@@@@@@@tttt@@@@tttt@@@@@@@1@%-44-* ==4;=",
"              +<+++++++tttttttttttt++++tttt+++++++<+*-44;& ==4;-",
" *&*%==-=-=&==+<+++++++tttttttttttt++++tttt+++++++<+*445=X --;4=",
" ==-*=4-;5;-54+<+++++++tttttttttttt++++tttt+++++++<+&=-;*X ==-;-",
" &%*=&&*--*=;=+<+++++++tttttttttttt++++tttt+++++++<+&==-=X %=5;-",
" &&=-*%X&==-=*+<++++++++++++++++++++++++++++++++++<+X&=;-X -=-*-",
" *-44-*%&;-44;+<++++++++++++++++++++++++++++++++++<+X-;4&X &%4;-",
" *=--=-%%&&-==+<+r+r+rr+rrr+rr++rrr+rrr+rr+r++r+r+<+X=*&X% -;5*=",
" %&*&&*******%+,+r+r+r++r+r+r+r+r+r++r++r++rr+r+r+,+X&%XX% &=-;=",
" %%&&&%%==*&*&O,OrOrOrrOrrOOrrrOrOrOOrOOrrOrOrrOrO,OXoXXX* =**==",
" **=-*&%*&*&&%O,O:O:O:OO:O:O:O:O:O:OO:OO:OO:OO:OOO,OX=*%%X %*;4=",
" %*&%%%X%%&%X%O,OO:OO::O:O:O::OO:::OO:OO::O:OO:O:O,OX&&%X. &=*=&",
" XX%X%%X%XXXX.O,OOOOOOOOOOOOOOOOOOOOOOOOOOOOOOOOOO,O.oXX.  .X.XX",
"              O,OOOOOOOOOOOOOOOOOOOOOOOOOOOOOOOOOO,O            ",
"&%%%&&% *4=---O>OOOOOOOOOOOOOOOOOOOOOOOOOOOOOOOOOO>O.o*&%%&X&=**",
"-4=4-=% -4=;==O>OOOOOOOOOOOOOOOOOOOOOOOOOOOOOOOOOO>OX%=*=-;-=-*=",
"-4=4-=. *=*%&*O>>>>>>>>>>>>>>>>>>>>>>>>>>>>>>>>>>>>Oo&&&*=*&=-;-",
"--;--=X **&&*%OOOOOOOOOOOOOOOOOOOOOOOOOOOOOOOOOOOOOOo=&&&&**==--",
";---;-% =&&%%X%X.       ...     ....    ..       ...o===-=--=-;-",
"*&=&*=% %XXX%%%XXXX.  .oooX... X%o%XX X%oX.X.   .Xoo%===---;=-;-",
";;=;;*X               %&%=*XoX *=*-&o o==*%%o.X o%*%%==*=--=-==-",
"*=;=*&% .X%&&*%&%&%XX =*&=&X&X *--;*% &*&X%%XXX X%**&%&&&%%=%%&*",
"%&*&%XX X*=-=-*=*=&X% *&*&%%&%.*==-*% XXX%%=*XX %X%&&%**-=-**&&%",
"&%%%&&& %****==*-&%X% %%%%&=*& &&-;=% XX***=*XX XX&&%=4;**=-====",
"*=-=*%X &&&&&*&&=&%X% %X*=-=&& &=--*X %**=-=*XX &**=---=--;-==--",
"*=&=*XX XXXX%%*&*&&X% %&;-;=*% &==-*X *;;-=-=%X %=;-*=--**-=&===",
"=;*;=&& ..X%%&&%&%X.X &==*==*X %*=*%X &===;=%XX ===**==*&***&***",
"=-*-=&% XX%&&%%%&XXX% *%&*&&&X &*;*&X **&X%XXX% X&-*&%&&%&*&%%&&",
"X&=&XXX XX&&&%%%%%XXX %X%%X%X. X**XXX %%XX%%%XX X%&&%%%%X%XXX%%%",
"XX%XX&& &%XX...XXXXX.          .XXXX%           X..XXXXXXX.XXXXX"
};
