/* XPM */
static char *bluewallbloodstained[] = {
/* columns rows colors chars-per-pixel */
"64 64 36 1 ",
"  c black",
". c #00001C",
"X c gray11",
"o c #00002C",
"O c #202020",
"+ c #282828",
"@ c #2C2C2C",
"# c gray19",
"$ c gray22",
"% c #710000",
"& c #7D0000",
"* c #000040",
"= c #00004C",
"- c #000059",
"; c #000065",
": c #000071",
"> c #00007D",
", c #484848",
"< c #555555",
"1 c #5D5D5D",
"2 c #656565",
"3 c #717171",
"4 c gray49",
"5 c #890000",
"6 c #000089",
"7 c #000099",
"8 c #0000A5",
"9 c #0000AA",
"0 c #0000B2",
"q c #0000BE",
"w c #0000CA",
"e c #0000D6",
"r c #0000E2",
"t c #0000EE",
"y c #8D8D8D",
"u c gray60",
/* pixels */
"wwwwwrtttrr; 8qtttetrtttttrtttq; eqtrttttttttee; eretr6 ;70rwtrq",
"qqwwwrtetr9- -0tw9qewtttrrtttq6o 9wtttttrqq0qrq- 8qete6 =860etw7",
"wqqwe000qrq7 >ettwrw7wetttttr86* 0ettter90etttq> 7ett06 8tqqrw6>",
"eqqqerq9697> 6qtt9rrwretrte76>8> qrteeweqree0r77 9wter6 6wert88>",
"0qqw98:7907; 99eerrtrrw097:>9qr0 erttw08wrttrr:6 60eww7 ;00ew77:",
"0;6;>:>wq7;; 9qttrrtrte0eqwrttr> qerq7rtrtre8q66 7wer9> :6097;=;",
"6>:>670wq7=6 :08709eqrwrrrrrr80- 0780ww96q9086:: =w696: **6>:;66",
"08;90rer08:6 -7896:777777>676>7= :-6>>;;:67;:>8: =:>6:* =;::8>7>",
"w07qee7e67;6                                            :>;69qq>",
"0777090w>7>>  #######################################   =>67787>",
"rq7qrq7978--  #u2@@###u2@@###u2@@###u2@@###u2@@###u2@   ;78q0077",
"0979068966:6  #2,O@###2,O@###2,O@###2,O@###2,O@###2,O   :99rq076",
"687966676::>  #@OO@###@OO@###@OO@###@OO@###@OO@###@OO   :9qw676-",
";-;-::->;==>  #@@@@###@@@@###@@@@###@@@@###@@@@###@@@   :67:==*-",
";;=;;*;:-=:-  ##########                  X##########   ;--=o--7",
"              ########## #################,##########           ",
"777777968987- ########## #   2#    2#   2#,########## ;>7767;::6",
"87778q0786>q> ########## #   2#    2#   2#,########## >78999:096",
"w898w08999wq> #u2@@##### #   2#    2#   2#,#######u2@ ;77q8960>8",
"76867880q99;; #2,O@##### #   2#    2#   2#,#######2,O ;767880888",
"990000797>>*; #@OO@##### #   2#    2#   2#,#######@OO =768878608",
">>;6>6>>=-=*; #@@@@#OO$# #   2#    2#   2#,####OO$@@@ -;o>:>>-7>",
":667:>-:->;;; ######O ,# #   2#    2#   2#,####O ,### -:----;-;-",
"              ######$,,# #   2#    2#   2#,####$,,###           ",
" *:*;;;;>:7:= ########## #   <#    <#   <#,########## -:=;78976-",
" :7688678-06- ########## #   <#    <#+  <#,########## 67789076>*",
" >:6>779667:= #u2@@##### #   <#   u22<  <#,#######u2@ 607777:66=",
" 67769976=6-* #2,O@##### #   <#  #y422  <#,#######2,O 69877>78>*",
" 67766:;;=::= #@OO@##### #   <#  ,44<,  <#,##OO$##@OO 6876888::=",
" -9;>98:*o:6o #,,,,,,,X@ #   <# #<3<,   <#,##O ,##@@@ 66788>7>:=",
" -7:9>--;o;6o #,###### O #,,,,#,,,,,#,,,,#,##$,,##### >:;;;:--=-",
" >87>667:o::* #,#X##X# X #################,#####&####  **o-=*=**",
" :6>>:::*;6-- #,###### XX,,,,,,,,,,,,,,,,,,###&&#####           ",
" *--**=*=*o>o #,## <## X+######&####&###&&####&###### ;::: *=-;;",
" oo***=== *o* #,## 2## X+#######&&&###&&&&##&&####u2@ ;6:- ;;6>;",
"              #,## <## X+#######&#&&&&&&&&&&######2,O ;7>= ;;6>:",
" -=-*;;:;:;=* #,##++## XOO$#########&&%%&&&####&##@OO :7;o ::>6;",
" ;;:-;6:>7>:= #,###### XO ,######&#&&&% 5&&&&&&&##@@@ :>;o ;;:>:",
" =*-;==-::-*o #,# ## # XO,,###OO$##&&&&55&&&&######## :::o *;7>:",
" ==;:-*o=;;=o #,###### X+#####O ,#&&&&&&&&&########## ;6:* :;:-:",
" -:66:-*=>:6* #X       X+#####$,,&&&&&&&&&&&######### ;7-o =*6>:",
" -;::;:**==:* #@OXXXXXXO@#######&&###&&&&&&&&######## >=o* :>7-;",
" *=-==------o #u1++++++@@#####&&##OO$#&&&&##&&####u2@ ;o** =;:>;",
" **===**;;-=* #2,O@###############O ,#&&&####&&&##2,O -;;; ;--;;",
" --;:-=*-=-=* #@OO@###############$,,#&#&#########@OO :;-= *->6;",
" *-=***o**=*o #@@@@#OO$###############&#&OO$######@@@ ;=-o =;-;=",
" oo*o**o*oo.o ######O ,###############&#&O ,######### =**  .o.oo",
"              ######$,,###############&#&$,,#########           ",
"=***==* *6--. ########################&#&######OO$### .o**=o=;--",
":6;6:;* :6;>* ########################&#&######O ,### o-;:>:;:-;",
":6;6:;. -;-*o ########################&#&######$,,### **-;-=;:>:",
"::>::;o --==o #u2@@#####                  X#######u2@ *===--;;::",
">:::>:* ;==o. #2,O@##### #############&###,#######2,O -=:;::;:>:",
"-=;=-;* *ooo* #@OO@##### #############&###,#######@OO *-:::>;:>:",
">>;>>-o       #@@@@##### #############&###,#######@@@ o*;::;:;;:",
"-;>;-=* .o*=o ########## #############&###,########## o*=**;**=-",
"*=-=*oo o-;:o ########## #############&###,########## o=:;:--==*",
"=***=== *---o ########## #############&###,########## o=--;:;;;;",
"-;:;-*o ====o ########## #############&###,########## *-::>:;;::",
"-;=;-oo oooo. ########## #############&###,########## o---:;=;;;",
";>->;== ..o*o #u2@@##u2@ #############&###,#u2@@##u2@ **=---=---",
";:-:;=* oo**o #2,O@##2,O #############&###,#2,O@##2,O ***=-=**==",
"o=;=ooo oo=*o #@OO@##@OOX,,,,,,,,,,,,,5,,,,#@OO@##@OO ooo*ooo***",
"oo*oo== =*ooo                                         oooo.ooooo"
};
