/* XPM */
static char *bluelewall[] = {
/* columns rows colors chars-per-pixel */
"64 64 19 1 ",
"  c black",
". c #00001C",
"X c #00002C",
"o c #000040",
"O c #00004C",
"+ c #000059",
"@ c #000065",
"# c #000071",
"$ c #00007D",
"% c #000089",
"& c #000099",
"* c #0000A5",
"= c #0000AA",
"- c #0000B2",
"; c #0000BE",
": c #0000CA",
"> c #0000D6",
", c #0000E2",
"< c #0000EE",
/* pixels */
":::::,<<<,,@ *;<<<><,<<<<<,<<<;@ >;<,<<<<<<<<>>@ >,><,% @&-,:<,;",
";;:::,<><,=+ +-<:=;>:<<<,,<<<;%X =:<<<<<,;;-;,;+ *;><>% O*%-><:&",
":;;:>---;,;& $><<:,:&:><<<<<,*%o -><<<>,=-><<<;$ &><<-% *<;;,:%$",
">;;;>,;=%=&$ %;<<=,,:,><,<>&%$*$ ;,<>>:>;,>>-,&& =:<>,% %:>,<**$",
"-;;:=*#&=-&@ ==>>,,<,,:-=&#$=;,- >,<<:-*:,<<,,#% %->::& @-->:&&#",
"-@%@$#$:;&@@ =;<<,,<,<>->;:,<<,$ ;>,;&,<,<,>*;%% &:>,=$ #%-=&@O@",
"%$#$%&-:;&OO #-*:,>>;,:,,,,,,:># -&*-::=%;=-*%## O:%=%# oo%$#@%%",
"-*@=-,>,-*O+ $<<<:-,<<<<<:><>;;+ #+%$$@@#%&@#$*# O#$%#o O@##*$&$",
":-&;>>&>%&OO &:;-*,>,<-><>><=,;@                        #$@%=;;$",
"-&&&-=-:$&+o +*>,;<:>>:<<>,<::&@ =%;-&;%%+ &=&OO&-&&&#X O$%&&*&$",
",;&;,;&=&*++ O$;;*>=><>,,:::;=$+ #-<>-;->% %;:*$&,>::%X @&*;--&&",
"-=&=-%*=%%#% #$%&:;;;;::::::;&$O ;<<-*=-=@ =;>:=>:;;<&$ #==,;-&%",
"%*&=%%%&%##o +%#&*&**==*&%&%$%%@ =:%$*-;&# $$&==;-::>=# #=;:%&%+",
"@+@+##+$@OO. @$$$%%*&%%@@#++@#+X ==*&==%@@ O+&%$-:=:;=@ #%&#OOo+",
"@@O@@o@#+OX. o#&$++OO+#$&%@@#+OX %%$+#@+@# $o#%#$#$;&&% @++OX++&",
"                                           ##%@+#%%&#%&         ",
"&&&&&&=%*=*&$+# %*;:*&-$&% +#$$%O#$##$##oX #&*$%$%@&%%& %&%&@##%",
"*&&&*;-&*%$;-&@ &$&;&:=;>@ +$&=-**&$%&&&#X #=-#$+#@&=&% $===#-=%",
":*=*:-*===:;=#o %#&:&=*,:+ @=->&*;:&;>-&#O @&&**$&O@&#@ #;*=%-$*",
"&%*%&**-;==@++o #*-=%:-&#o +-$=&:=-:;;#$%# +%%-=%%#$$%& $&**-***",
"==----&=&$$+##@ &:&;>;&%%O @*&--;;==*$$=## $@%%@$%&%+@# #**&*%-*",
"$$@%$%$$O+Oo#@+.##$&$+++O+ #&&%&=:>&$#&=++ #o@++@@@@#+$ #$#$$+&$",
"#%%&#$+#+$@@$#O O+OOOOO@@@ #&&*%-:&@%&-&## $$%$@#*-*%O@ #+++@+@+",
"             ..            #&%*%&%@$&*&&#+ %%&;$$&&%%o+         ",
" o#o@@@@#o +@#&%#$##++++@O O@%%#$$$&&=&$@O ##+%+#%*&%O+ +@$&=&%+",
" #&%**%$$o #%&=&&%%&%&&%+X O++$%-&$===%$@O $&@=&&%**&Oo O@&-&%$o",
" $#%$&&%$+ O%&=&&&*=*=%$@X +$@%%&&&*%##O+@ ##+&*$@#$%O. X$&&#%%O",
" %&&%==%#O #&*&$%#####O$%o @#XO@@$###@@@#@ O+$=;&=%*@OX o%&$&*$o",
" %&&%%#@#O O#@#@#@@+@%@&&@ OOoO@##@++OO+@X O@&&*$**#+#o X#***##O",
" +=@$=*#$X +@O@O+@$#&&@%%#     .........   #$&%*&&$@#@O X$&$&$#O",
" +&#=$+##X ++#%$*&&$*&%%%# ++#o++OXXoo+@@o ##@#%+#++@@@ o+@#++O+",
" $*&$%%%oX @@@#$&$%%&&%%#O +$$+@++o+o@$$@X XoOOOOOX+++X XX+OoOoo",
" #%$$##+o+ ####O@@#####@OO O+#%$@@#&$&$&@X                      ",
" o++ooOoOO oX+OOoXXoOO+OOX oo+@+@@@#@#+@+o O+@@@#OOOo++### oO+@@",
" XXoooOOO. X.ooOoXoXXXXXX. @oo@$@@+%##@#@X ++$@%#$@@$%%%#+ @@%$@",
"                           OXOO@#$@#+###+o #$&#&%%%&&%%%$O @@%$#",
" +O+o@@#@#@O@@##@##O+ +O#o OO+O+##$@$$##+X +@#$&%%&&&&%&@X ##$%@",
" @@#+@%#$&$#&%$##@@+o &#$o +##@@+$&#&$##+o +@$@#$%%&%##$+X @@#$#",
" Oo+@OO+##+@$@+@@##XX %@+o @@##@OO+@+@@@OO X@%$#$$$%%#@#@X o@&$#",
" OO@#+oXO@@#@+@$@$@XX $$+O OoOo+OO+oXooXoO oO#@@@#@@++@$#X #@#+#",
" +#%%#+oO$#%%$%+o@+oo @oXX XXO++OoXX....oO oO@#+@@o++%$%OX Oo%$#",
" +@##@#ooOO#@@OoOO@oX                      OO@$+$+@#+#+OXo #$&+@",
" oO+OO+++++++oooooXXO @+@##$#@ ###@@#+o+@+ O+##+@+@@O+oXXo O@#$@",
" ooOOOoo@@+O+OOX+oXoO #$%&$&$@ %$$$#$#$+@+ +@@#$$##@+oXXX+ @++@@",
" ++@#+Oo+O+OOo++oXXOO @$#$#%@+ #@#@+@O+o@O @#@+@+++O+#+ooX o+$%@",
" o+OoooXooOoXooX.XOo. o@OO@%@o.#@@@@@@++Oo oOoXoooXO++OoX. O@+@O",
" XXoXooXoXXXX...oOo.  ooXX@#@O.oXXXoXoXOoX . . ..XXXXoXX.  .X.XX",
"                      +O+@#+@O.                                 ",
"OoooOOo +%@####@##@Oo O+##@+#o X#++@O .O@O++OoO ..oXXo+OooOXO@++",
"#%@%#@o #%@$@@+#$@@+o +@###ooX +$$$#X O$$$#+@oO XX++OO@+@#$#@#+@",
"#%@%#@. +@+oO+oOOoOXX @++O+++X @$###o +##+@@+Xo o+@#@+OO+@+O@#$#",
"##$##@X ++OO+ooO+OOXO oo++@@OX +#$$$o ++$@@+o.X XoO@@#OOOO++@@##",
"$###$#o @OOooXOOOOXXX X+@#@oXX +##$@o O+$@++O.X X@##@#@@#@##@#$#",
"+O@O+@o oXXXooOoOO+X. o@@@+ooo O#@#+O +#@+oOo.. o+@++#@@###$@#$#",
"$$@$$+X               O+O#@XoX @#@$+o o##@OOo.X oO@OO@@+@##@#@@#",
"+@$@+Oo .XoOO+oOoOoXX @+O@OXOX +##$+o O+OXooXXX Xo++OoOOOoo@ooO+",
"oO+OoXX X+@#@#+@+@OXo +O+OooOo.+@@#+o XXXoo@+XX oXoOOo++#@#++OOo",
"OoooOOO o++++@@+#OoXo ooooO@+O OO#$@o XX+++@+XX XXOOo@%$++@#@@@@",
"+@#@+oX OOOOO+OO@OoXo oX+@#@OO O@##+X o++@#@+XX O++@###@##$#@@##",
"+@O@+XX XXXXoo+O+OOXo oO$#$@+o O@@#+X +$$#@#@oX o@$#+@##++#@O@@@",
"@$+$@OO ..XooOOoOoX.X O@@+@@+X o+@+oX O@@@$@oXX @@@++@@+O+++O+++",
"@#+#@Oo XXoOOoooOXXXo +oO+OOOX O+$+OX ++OXoXXXo XO#+OoOOoO+OooOO",
"XO@OXXX XXOOOoooooXXX oXooXoX. X++XXX ooXXoooXX XoOOooooXoXXXooo",
"XXoXXOO OoXX...XXXXX.          .XXXXo           X..XXXXXXX.XXXXX"
};
