/* XPM */
static char *graydoorswastika1[] = {
/* columns rows colors chars-per-pixel */
"64 64 27 1 ",
"  c black",
". c gray11",
"X c #202020",
"o c #282828",
"O c #2C2C2C",
"+ c gray19",
"@ c #343434",
"# c gray22",
"$ c #400000",
"% c #4C0000",
"& c #590000",
"* c #650000",
"= c #710000",
"- c gray25",
"; c gray49",
": c #858500",
"> c #9D9D00",
", c #B6AE00",
"< c #CEC600",
"1 c #E6DA00",
"2 c #FFF620",
"3 c #8D8D8D",
"4 c gray60",
"5 c #AAAAAA",
"6 c #B6B6B6",
"7 c gray76",
"8 c #D2D2D2",
/* pixels */
"-----------X ------------------X --------------o -----@ o##-----",
"----------@X X---@-----------#@. ----------#---X @----+ .-+#---@",
"-----#-#---# #------+--------#@. -------##----#+ ----#+ #-----O@",
"-------#@#@o +---#---------+@o#O -----------#-@# #----+ #----@#@",
"#----@+@#-#o -#--------##@oo##-# -----##------O@ ##---@ o----#-@",
"-o+oO+O--@oo ----------#-------O ----@------#-++ ----#+ +@--#X.o",
"@@oO@@---#.X o-+----#----------X -###--#+##-##O+ X-+#@O ..#+++#+",
"--o#------.X +----#------------. oX@O+Xoo+#Xo+-O XoO+o. .OO@-+-+",
"--#---@-+#.X #--#@----#-----@--o                        #+O@---#",
"-###----+-X. X#---------------+o -#-#@-@@X #-#XX--@-#+. .+#-#-#+",
"--+---###-XX X======================================-#. o-#---##",
"##@--#-###++ O=222222222222222222222222222222222222=-+@ o-----#@",
"#-#-###-#o+X o=2==================================2=+#+ +---+#@o",
"ooXoOOo-oXX  o=2==================================2=o#o +#-OXX.X",
"oOXoO.oooX.  .=2=888=888=8==8=888=8==8=8==8=888=8=2=X+@ oXXX.o@-",
"              =2=8=8=8===8==8==8==8==8=88=8=8===8=2=.O-         ",
"#------#---#@.=2=777=7===7777==7==7==7=7=77=7===7=2=.@- --#-O@@#",
"---------+@---*2*7*7*7***7**7**7**7**7*7**7*7*7***2*X@- #---+--#",
"------#------o*2*7*7*777*7**7**7**7777*7**7*777*7*2*.oo +---#-#-",
"#+-@#----#-ooo*2**********************************2*.O- @#------",
"--------#++X+@*2**********************************2*.XO @----#--",
"#@o++#+@.XXX@o*2**********************************2*.X+ ##@@@o-+",
"+-#-O@o+O+o+@O*1*******6666****666666666666*******1*..o +oOXOo@o",
"              *1*******6666****666666666666*******1*X..         ",
" .+.oOO@#. O@+*1*******6666****666666666666*******1*..o O+@----O",
" @-#--#@#. #-@&1&&&&&&&6666&&&&666666666666&&&&&&&1&X.. o+--#-+.",
" #+-@---#O X--&<&&&&&&&6666&&&&6666&&&&&&&&&&&&&&&<&... .#--@--X",
" #------+o +--&<&&&&&&&5555&&&&5555&&&&&&&&&&&&&&&<&... o#-#--#.",
" #--@##++o o#o&<&&&&&&&5555&&&&5555&&&&&&&&&&&&&&&<&.o. .#---+@X",
" X-+#--O#. o+o&<&&&&&&&5555&&&&5555&&&&&&&&&&&&&&&<&.oo .--#-##X",
" o-O--+@@. ++O&<&&&&&&&55555555555555555555&&&&&&&<&.o@ X+O+ooXo",
" #--@--#X. ##o&<&&&&&&&55555555555555555555&&&&&&&<&.o. ..oXXoXo",
" ####+#O.+ ##+&<&&&&&&&44444444444444444444&&&&&&&<&            ",
" XOoX.O.Xo X.o&,&&&&&&&44444444444444444444&&&&&&&,& Xo@@@ oo@@#",
" ...o.Xoo. ...%,%%%%%%%%%%%%%%%4444%%%%4444%%%%%%%,%X@--#@ #---#",
"              %,%%%%%%%%%%%%%%%4444%%%%4444%%%%%%%,%XO@-#o @O-##",
" @oOX###o-@X+O%,%%%%%%%%%%%%%%%4444%%%%4444%%%%%%%,%X@@-o. -##-+",
" ++#o+-#---#--%,%%%%%%%%%%%%%%%3333%%%%3333%%%%%%%,%XO+-O. #O#-@",
" XX@+oXO+#@@-+%,%%%%%%%333333333333%%%%3333%%%%%%%,%XOO@@. X#--#",
" Oo@-@o.o+o-@o%>%%%%%%%333333333333%%%%3333%%%%%%%>%.oO-#. -##O#",
" +#---@o+-----$>$$$$$$$333333333333$$$$3333$$$$$$$>$.@-#o. oX-#O",
" o##@+-Xoo+#+@$>$$$$$$$;;;;;;;;;;;;$$$$;;;;$$$$$$$>$.O+X.o #--O+",
" XO+ooOO+@++o.$>$$$$$$$$$$$$$$$$$$$$$$$$$$$$$$$$$$>$.o...X o#@-#",
" Xoo+ooX+#+oOO$>$$$$$$$$$$$$$$$$$$$$$$$$$$$$$$$$$$>$.X...O #+O+@",
" +@##@+X@o#OOo$:$$$$$$$$$$$$$$$$$$$$$$$$$$$$$$$$$$:$.@Ooo. X#---",
" o-o.oX.OoOo.o$:$$$$$$$$$$$$$$$$$$$$$$$$$$$$$$$$$$:$.XoXX. o#+#o",
" .Xo.oX.o.....$:$$$$$$$$$$$$$$$$$$$$$$$$$$$$$$$$$$:$ ....  .....",
"              $::::::::::::::::::::::::::::::::::::$            ",
"OoOo@oo @-#---$$$$$$$$$$$$$$$$$$$$$$$$$$$$$$$$$$$$$$ X+Ooo+.@-@@",
"#-@-#+X --@--+oo....  .....    .....   .... .     ...X@o#--#--@+",
"###-##. #@+XO+oX...   X......  .X.... .XX.... . ..Xo+Oo++-+o#---",
"-#--#-. OOoo#XooXXo.o XXXOo@X. o@@@@. Xo@o@OX.. .XX##@O+ooO@+#--",
"--#--#X -oooo.@oo@... .@-O@o.. --@-@. Oo-+@Oo.. .-@-+@###@-#---#",
"OX#o@#o o...XX+XO++.. X--#+OoO o###+o +##@X@O.. oO#@+-##-##-@--#",
"--+--+.               O#O--.o. @-#-oo X@-#ooO.. o+-++-#@#--##+--",
"++-+ooO ..ooOO+ooOO.. #-O-+XO. #-@-oX o#O.oo... .+#++X+O@oX@XXo@",
"o+@OX.. .##---@#-#+Xo #+-OOooo.##+-#+ ...XO--.X O.o+oo@+-#-OOo#O",
"oXoXo++ o+@@+--@#oo.+ oOXOo#@O Oo--#X XX#O++OX. ..#oX#--@O#---#@",
"@##@#X. ##o++#+##+X.. X.+#-#oo #---+. OO+-##+.X o+@-####---###-#",
"##O-+.X ...Xoo#+@+O.o oX-#--+X O#+-@. #---@-@XX o#--O+--@@--+@##",
"#-+-#X@ ...oO+@o++X.X O-@@@#+. o@#Oo. +-#--#+.. --@###-@o+#++#+@",
"#-@-#Oo X.X+@X+XO...X #oO++oo. O@-#O. #+o.o...o .o-#+.+OX+#oXX#o",
".O#o... .XOO@XooOo..X o.+o.o.. .@+... oo..ooo.X .XOOXo+o.XX.XXXo",
"..o..o@ +o.X....XX.X.          .X...o           X......X........"
};
