/* XPM */
static char *graydoor[] = {
/* columns rows colors chars-per-pixel */
"64 64 14 1 ",
"  c black",
". c gray11",
"X c #202020",
"o c #282828",
"O c #2C2C2C",
"+ c gray19",
"@ c #343434",
"# c gray22",
"$ c gray25",
"% c #484848",
"& c #555555",
"* c #5D5D5D",
"= c #656565",
"- c gray60",
/* pixels */
"$$$$$$$$$$$X $$$$$$$$$$$$$$$$$#X $#$$$$$$$$$$$$X $$$$$+ o@#$$$$#",
"$$$$$$$$$$#. X$$$@#$#$$$$$$$$$O. #$$$$$$$####$#X #$$$$O X#@$$$$@",
"$$$$$@@##$$@ O$$$$$$+#$$$$$$$+O. #$$$$$$+#$$$$#o @$$$#+ #$$$$$O+",
"$$$#$$$#O##O +$$$@$$$$$$$$$OOo$@ #$$$$$$#$$$#$+@ #$$$$O +$$$$#$+",
"$$$$##o##$#o $$$$$$$$$$#@+XO#$$# $$$$$#+$$$$$$XO O$$$$# o#$$$@#o",
"#o+oooo$$#XX #$$$$$$$$$#$$$$$$$o $$$#@$$$$$$@#@+ #$$$@@ O+$$@o.X",
"@OO+@@$$$#.# X#@+##$$$$$$$$$$@#. $@+#$$@O####@oo X$O#@o ..#oOo##",
"$#o$$$$$$#o# X#$$+o#@@@++o+@+o+X Oo+ooXXo+@oO@$O X+O+o. X@oO$@$@",
"$$#$$$+$+@o@                                            +#O@$$$+",
"$###$$$$@#++  +++++++++++++++++++++++++++++++++++++++   X#$$$$#+",
"$$#$$$@$##XX  +-=OO+++-=OO+++-=OO+++-=OO+++-=OO+++-=O   +#$$$$#$",
"###$$+#$@#O#  +=%XO+++=%XO+++=%XO+++=%XO+++=%XO+++=%X   +$$$$$##",
"@$#$@####O+@  +OXXO+++OXXO+++OXXO+++OXXO+++OXXO+++OXX   @$$$##@o",
"oooXooX@oXX#  +OOOO+++OOOO+++OOOO+++OOOO+++OOOO+++OOO   ###o.X.X",
"+X.oo.o+oX+o  ++++++++++                  .++++++++++   Ooo..XO$",
"              ++++++++++ +++++++++++++++++%++++++++++           ",
"$#$@#$$@$$$$X ++++++++++ +   =+    =+   =+%++++++++++ +#$$$$oO@#",
"$##$$$$$$@@$# ++++++++++ +   =+    =+   =+%++++++++++ #$$$$$+$$#",
"$#$$$$$$$$$$+ +-=OO+++++ +   =+    =+   =+%+++++++-=O +$$$$$#$+$",
"##$@#$$$$$$oo +=%XO+++++ +   =+    =+   =+%+++++++=%X O$#$$$$$$$",
"$$$$$$#$#+@.+ +OXXO+++++ +   =+    =+   =+%+++++++OXX o$#$$$$$$$",
"O+o@+#+@ooXXO +OOOO+++++ +   =+    =+   =+%+++++++OOO oO.@+@@o#@",
"+#$$+@X+o@OO+ ++++++++++ +   =+    =+   =+%++++++++++ O#o+XOOoOo",
"              ++++++++++ +   =+    =+   =+%++++++++++           ",
" o#X+Oo@##$#o ++++++++++ +   &+    &+   &+%++++++++++ o#o+$$$$#o",
" #$#$##$$o$#+ ++++++++++ +   &+    &+   &+%++++++++++ #$$$$$$#@.",
" #+#@#$$+$$+X +-=OO+++++ +   &+    &+   &+%+++++++-=O $$$#$$@#$X",
" $$$#$$##X#oX +=%XO+++++ +   &+    &+   &+%+++++++=%X $$$$$+$$#.",
" #$$##+O+o+#O +OXXO+++++ +   &+    &+   &+%+++++++OXX $$$#$$$++o",
" +$++$$@X.$$. +%%%%%%%.O +   &+    &+   &+%+++++++OOO $$$$$+$##X",
" +$+$@Oo+.#$. +%++++++ X +%%%%+%%%%%+%%%%+%++++++++++ ##+++@OoO+",
" ##$@##$+.#@o +%+.++.+ . +++++++++++++++++%++++++++++  XX.ooXooX",
" ####@@+.+#OO +%++++++ ..%%%%%%%%%%%%%%%%%%++++++++++           ",
" .oOXXoXOo.$. +%++ &++ .o++++++++++++++++++++++++++++ ##@# .Oo+#",
" ..X.o+oO X.. +%++ =++ .o+++++++++++++++++++++++++-=O O$@o #+$$+",
"              +%++ &++ .o+++++++++++++++++++++++++=%X +$#O @#$##",
" +o+X@@@O#ooo +%++oo++ .o+++++++++++++++++++++++++OXX @$+. ###$O",
" @##@+$$$$$#O +%++++++ .o+++++++++++++++++++++++++OOO @#+X O@+$#",
" @XO#Xo+##OX. +%+ ++ + .o++++++++++++++++++++++++++++ ##+. o@$$#",
" Oo@#+X.O+#+. +%++++++ .o++++++++++++++++++++++++++++ @$@X @+@o#",
" +#$$#+Xo##$X +.       .o++++++++++++++++++++++++++++ @$o. oo$##",
" @+#@+#.Xoo$X +OX......XO++++++++++++++++++++++++++++ $X.X #$$+#",
" X++oo++@++O. +-*ooooooOO+++++++++++++++++++++++++-=O +.X. o@##@",
" oXoOOXO@$OoX +=%XO+++++++++++++++++++++++++++++++=%X @@@# #+O@@",
" +++#++X@+#+o +OXXO+++++++++++++++++++++++++++++++OXX #@+X Xo#$O",
" X#oXoo.Xo+o. +OOOO+++++++++++++++++++++++++++++++OOO #++. O+o@o",
" ....OX.X.... +++++++++++++++++++++++++++++++++++++++ Oo.  .....",
"              +++++++++++++++++++++++++++++++++++++++           ",
"oX.OoOX X$+o. +++++++++++++++++++++++++++++++++++++++ ..XO+Xo++o",
"#$+$##X @##$X +++++++++++++++++++++++++++++++++++++++ X@#$$##@++",
"#$O$#+. +++o. +++++++++++++++++++++++++++++++++++++++ o++@Oo@$##",
"##$@#+. ++oO. +-=OO+++++                  .+++++++-=O ooooO@@#$+",
"@+#@@#o #O+.. +=%XO+++++ +++++++++++++++++%+++++++=%X @O@@@###$#",
"oo@OOOo X...o +OXXO+++++ +++++++++++++++++%+++++++OXX oo$#o$+##$",
"#O@#$o.       +OOOO+++++ +++++++++++++++++%+++++++OOO .X#$#+#O+$",
"X+$+oo. ...+. ++++++++++ +++++++++++++++++%++++++++++ X.o.X#X.Oo",
"XXOo... .o+#. ++++++++++ +++++++++++++++++%++++++++++ .o#+$OOXXo",
"o.XXoo@ .+oo. ++++++++++ +++++++++++++++++%++++++++++ .XoO+###+@",
"@+##o.. oO.O. ++++++++++ +++++++++++++++++%++++++++++ X+@###@###",
"OoO@o.. ..... ++++++++++ +++++++++++++++++%++++++++++ .+oo#+X+#+",
"O#@#ooX ..... +-=OO++-=O +++++++++++++++++%+-=OO++-=O XXoo+Oo+oo",
"O+o@@o. .XX.. +=%XO++=%X +++++++++++++++++%+=%XO++=%X X..X+XXXoo",
".XoX... ..X.. +OXXO++OXX.%%%%%%%%%%%%%%%%%%+OXXO++OXX ...X....X.",
".....OX o....                                         .........."
};
