/* XPM */
static char *graywall[] = {
/* columns rows colors chars-per-pixel */
"64 64 10 1 ",
"  c black",
". c gray11",
"X c #202020",
"o c #282828",
"O c #2C2C2C",
"+ c gray19",
"@ c #343434",
"# c gray22",
"$ c gray25",
"% c #484848",
/* pixels */
"$$$$$$$$$$$X $$$$$$$$$$$$$$$$$$X $$$$$$$$$$$$$$o $$$$$@ o##$$$$$",
"$$$$$$$$$$@X X$$$@$$$$$$$$$$$#@. $$$$$$$$$$#$$$X @$$$$+ .$+#$$$@",
"$$$$$#$#$$$# #$$$$$$+$$$$$$$$#@. $$$$$$$##$$$$#+ $$$$#+ #$$$$$O@",
"$$$$$$$#@#@o +$$$#$$$$$$$$$+@o#O $$$$$$$$$$$#$@# #$$$$+ #$$$$@#@",
"#$$$$@+@#$#o $#$$$$$$$$##@oo##$# $$$$$##$$$$$$O@ ##$$$@ o$$$$#$@",
"$o+oO+O$$@oo $$$$$$$$$$#$$$$$$$O $$$$@$$$$$$#$++ $$$$#+ +@$$#X.o",
"@@oO@@$$$#.X o$+$$$$#$$$$$$$$$$X $###$$#+##$##O+ X$+#@O ..#+++#+",
"$$o#$$$$$$.X +$$$$#$$$$$$$$$$$$. oX@O+Xoo+#Xo+$O XoO+o. .OO@$+$+",
"$$#$$$@$+#.X #$$#@$$$$#$$$$$@$$o                        #+O@$$$#",
"$###$$$$+$X. X#$$$$$$$$$$$$$$$+o $#$#@$@@X #$#XX$$@$#+. .+#$#$#+",
"$$+$$$###$XX X+$$@$#$$$$$$$$$#+o O$$$$$$$+ @$$$+#$$$$#. o$#$$$##",
"##@$$#$###++ O@+#$$$$$$$$$$$$#O. $$$##$$$o $$$$$$$$$%@@ o$$$$$#@",
"#$#$###$#o+X o#O###$#$##@@#@#@#o $$@+$$$#@ +@#$#$$$$$$+ +$$$+#@o",
"ooXoOOo$oXX  O@#@@+$#++oo+XX+OX. $###$$@oX Xo$#+$$#$$$o +#$OXX.X",
"oOXoO.oooX.  X+$+oXX.Xo+$@oX+XX. $@+XOoXoO @.O@O+++$### oXXX.o@$",
"                                           O+#+X@#@$+#$         ",
"#$$$$$$#$$$#@X+ #$$$$$$##@ oo###X+#++@+@.. @#$+#@#o##$$ $$#$O@@#",
"$$$$$$$$$+@$$$o $@#$#$$$$o o@#$$$$#@#$#$o. +$$++o++$$$$ #$$$+$$#",
"$$$$$$#$$$$$$o. @+#$#$$$$o o$$$##$$#$$$$+o O$$$$@$XO#+o +$$$#$#$",
"#+$@#$$$$#$ooo. @$$$@$$$O. X$+$#$$$$$$O+#@ +$#$$$$@$+#$ @#$$$$$$",
"$$$$$$$$#++X+#o $$@$$$##$. o$$$$$$$#$+@$@+ #O$#O##$#oO+ @$$$$#$$",
"#@o++#+@.XXX@Oo.+o+$@XooXo +$$#$$$$#++#$oX +.++oO+O+#o@ ##@@@o$+",
"+$#$O@o+O+o+@+X XoXXXXoX+o @$#$@$$#X#$$#++ ##$#++$$$#XO +oOXOo@o",
"              .            @$#$#$+o+$$$#+o $#$$@@$$#$.X         ",
" .+.oOO@#. O@@$$##@@oXOoO. oO#$+@@@$$$$@@X @+o#o#$$##Xo O+@$$$$O",
" @$#$$#@#. #$#$#$##$#$$#o. XoO##$$@$$$$@+X #$O$$$$$$$X. o+$$#$+.",
" #+$@$$$#O X$$$#$$$$$$##o. O$+#$$$$$#++o+O @+O$$#O###X. .#$$@$$X",
" #$$$$$$+o +$$$@#++++#.+$X ++.X+o#++@#Oo#+ X+$$$$$$$OX. o#$#$$#.",
" #$$@##++o o#o#+@++O+#o$$O oX.X+##OoOoXO+. o@$$$#$$+o@X .#$$$+@X",
" X$+#$$O#. o+oOooo$+$$o$$+     .. ...  .   $#$$$$$#O@@o .$$#$##X",
" o$O$$+@@. +++#$$$##$$$##+ oo#.oO....oO+#X ##@@$o@OO#+# X+O+ooXo",
" #$$@$$#X. ##O+#$@$##$#$+o +$#@+OOXoXO#$+. .XXoXXo.O++. ..oXXoXo",
" ####+#O.+ ##@#oo+@$@+#@Xo oo@$#@@$$$$$$@.                      ",
" XOoX.O.Xo X.OoOX..XooOoO. X.o+o+O@@@#o+oX o@@+@+XOO.oO@@@ oo@@#",
" ...o.Xoo. ..XXo..X....... +oX@$++o$#+###. +O$#$@$++$$$$#@ #$$$#",
"                           o.oX@####o##$o. #$$#$$##$$##$#o @O$##",
" @oOX###o$@X++@####X+ #o#X Oooo+#+$+$###+. ++#@$#$$$$$#$o. $##$+",
" ++#o+$#$$$#$$#+$O#Oo $##. ##$@++#$#$$$#oX o+$#$$$$$$#@$O. #O#$@",
" XX@+oXO+#@@$@o+@##.. $#Oo #+#++Xoo@+++@XO .@$$##$#$$#+@@. X#$$#",
" Oo@$@o.o+o$@o#$+$#.. $$+o oXOo+Oo+X.XX.+O .o+@+@#@+o++$#. $##O#",
" +#$$$@o+$$$$$$+.@O.X #o.. ..oOOXX.......+ XO#$O+#XOO$$#o. oX$#O",
" o##@+$Xoo+#+#oo+o#X.                      oo#$+$O#$+#@X.o #$$O+",
" XO+ooOO+@++oXXXXX..o @O##$$@$ $+$#$$+.+#@ oO#@+@O@#X+X..X o#@$#",
" Xoo+ooX+#+oO+o.+o.Xo @#$$#$$+ $$$$#$$$##@ ####$$$$#+O...O #+O+@",
" +@##@+X@o#OOo+@X..O@ @$#$#$#O #+#++@++o@o ###o$+#OXO$+oo. X#$$$",
" o$o.oX.OoOo.oo...Oo. oOoO+$+X.###@@+##O+X oOX.oXoXo@ooXX. o#+#o",
" .Xo.oX.o.......oOo.  Xo..+#@+.X...O.X.Oo. . . ......X...  .....",
"                      #@+@#@#O.                                 ",
"OoOo@oo @$#$$$#@$$#+o ++#+O@#o X$+@$O .+$oO++oO ..o..o@Ooo+.@$@@",
"#$@$#+X $$@$$@+$$##@O #$$$$oX. @$$$#. X$$$#O#oO X.@#+O#o#$$#$$@+",
"###$##. #@+XO@OOOo@.. $#+O+@@. #$@##X @$$o##+.o o+#$$@O++$+o#$$$",
"$#$$#$. OOoo#Xo+OO+.+ ooO#@$O. @$$$$X o+$+$#O.. .oo$$#O+ooO@+#$$",
"$$#$$#X $oooo.@Oo#... .#$+#o.. $$#$#X +O$@#+o.. .$#$@@###@$#$$$#",
"OX#o@#o o...XX+XO++.. X$$#+OoO o###+o +##@X@O.. oO#@+$##$##$@$$#",
"$$+$$+.               O#O$$.o. @$#$oo X@$#ooO.. o+$++$#@#$$##+$$",
"++$+ooO ..ooOO+ooOO.. #$O$+XO. #$@$oX o#O.oo... .+#++X+O@oX@XXo@",
"o+@OX.. .##$$$@#$#+Xo #+$OOooo.##+$#+ ...XO$$.X O.o+oo@+$#$OOo#O",
"oXoXo++ o+@@+$$@#oo.+ oOXOo#@O Oo$$#X XX#O++OX. ..#oX#$$@O#$$$#@",
"@##@#X. ##o++#+##+X.. X.+#$#oo #$$$+. OO+$##+.X o+@$####$$$###$#",
"##O$+.X ...Xoo#+@+O.o oX$#$$+X O#+$@. #$$$@$@XX o#$$O+$$@@$$+@##",
"#$+$#X@ ...oO+@o++X.X O$@@@#+. o@#Oo. +$#$$#+.. $$@###$@o+#++#+@",
"#$@$#Oo X.X+@X+XO...X #oO++oo. O@$#O. #+o.o...o .o$#+.+OX+#oXX#o",
".O#o... .XOO@XooOo..X o.+o.o.. .@+... oo..ooo.X .XOOXo+o.XX.XXXo",
"..o..o@ +o.X....XX.X.          .X...o           X......X........"
};
