/* XPM */
static char *graywallswastika2[] = {
/* columns rows colors chars-per-pixel */
"64 64 27 1 ",
"  c black",
". c gray11",
"X c #202020",
"o c #282828",
"O c #2C2C2C",
"+ c gray19",
"@ c #343434",
"# c gray22",
"$ c #400000",
"% c #4C0000",
"& c #590000",
"* c #650000",
"= c #710000",
"- c gray25",
"; c gray49",
": c #858500",
"> c #9D9D00",
", c #B6AE00",
"< c #CEC600",
"1 c #E6DA00",
"2 c #FFF620",
"3 c #8D8D8D",
"4 c gray60",
"5 c #AAAAAA",
"6 c #B6B6B6",
"7 c gray76",
"8 c #D2D2D2",
/* pixels */
"-----------X ------------------X --------------o -----@ o##-----",
"----------@X X---@-----------#@. ----------#---X @----+ .-+#---@",
"-----#-#---# #------+--------#@. -------##----#+ ----#+ #-----O@",
"-------#@#@o +---#---------+@o#O -----------#-@# #----+ #----@#@",
"#----@+@#-#o -#--------##@oo##-# -----##------O@ ##---@ o----#-@",
"-o+oO+O--@oo ----------#-------O ----@------#-++ ----#+ +@--#X.o",
"@@oO@@---#.X o-+----#----------X -###--#+##-##O+ X-+#@O ..#+++#+",
"--o#------.X +======================================+o. .OO@-+-+",
"--#---@-+#.X #=222222222222222222222222222222222222=    #+O@---#",
"-###----+-X. X=2==================================2=oo. .+#-#-#+",
"--+---###-XX X=2==================================2=X+. o-#---##",
"##@--#-###++ O=2==================================2=XO@ o-----#@",
"#-#-###-#o+X o=2===888=8=8==8=888=888=8=888=888===2=X#+ +---+#@o",
"ooXoOOo-oXX  O=2===7===7=77=8==8==7=7=7==7===7====2=X#o +#-OXX.X",
"oOXoO.oooX.  X=2===777=7=7=77==7==77==7==7===7====2=.+# oXXX.o@-",
"              *2***7***7*7**7**7**7*7*7**7***7****2*.+-         ",
"#------#---#@X*2***777*7*7**7**7**7*7*7**7***7****2*.#- --#-O@@#",
"---------+@---*2**********************************2*X#- #---+--#",
"------#------o*2**********************************2*.oo +---#-#-",
"#+-@#----#-ooo*2*******7777****777777777777*******2*.+- @#------",
"--------#++X+#*2*******7777****777777777777*******2*.o+ @----#--",
"#@o++#+@.XXX@O*1*******6666****666666666666*******1*.X@ ##@@@o-+",
"+-#-O@o+O+o+@+*1*******6666****666666666666*******1*..O +oOXOo@o",
"              *1*******6666****6666***************1*X.X         ",
" .+.oOO@#. O@@*1*******6666****6666***************1*..o O+@----O",
" @-#--#@#. #-#&1&&&&&&&6666&&&&6666&&&&&&&&&&&&&&&1&X.. o+--#-+.",
" #+-@---#O X--&<&&&&&&&6666&&&&6666&&&&&&&&&&&&&&&<&... .#--@--X",
" #------+o +--&<&&&&&&&55555555555555555555&&&&&&&<&... o#-#--#.",
" #--@##++o o#o&<&&&&&&&55555555555555555555&&&&&&&<&.OX .#---+@X",
" X-+#--O#. o+o&<&&&&&&&55555555555555555555&&&&&&&<&.Oo .--#-##X",
" o-O--+@@. +++&<&&&&&&&55555555555555555555&&&&&&&<&.o# X+O+ooXo",
" #--@--#X. ##O&<&&&&&&&&&&&&&&&5555&&&&5555&&&&&&&<&.o. ..oXXoXo",
" ####+#O.+ ##@&<&&&&&&&&&&&&&&&5555&&&&5555&&&&&&&<&            ",
" XOoX.O.Xo X.O&<&&&&&&&&&&&&&&&5554&&&&4444&&&&&&&<& XO@@@ oo@@#",
" ...o.Xoo. ..X&<&&&&&&&&&&&&&&&4444&&&&4444&&&&&&&<&X#--#@ #---#",
"              %,%%%%%%%444444444444%%%%4444%%%%%%%,%X+#-#o @O-##",
" @oOX###o-@X++%,%%%%%%%444444444444%%%%4444%%%%%%%,%X##-o. -##-+",
" ++#o+-#---#--%,%%%%%%%444444444444%%%%4444%%%%%%%,%X+@-O. #O#-@",
" XX@+oXO+#@@-@%,%%%%%%%444444444444%%%%4444%%%%%%%,%X++@@. X#--#",
" Oo@-@o.o+o-@o%,%%%%%%%%%%%%%%%%%%%%%%%%%%%%%%%%%%,%.o+-#. -##O#",
" +#---@o+-----%,%%%%%%%%%%%%%%%%%%%%%%%%%%%%%%%%%%,%.#-#o. oX-#O",
" o##@+-Xoo+#+#%,%3%3%33%333%33%%333%333%33%3%%3%3%,%.+@X.o #--O+",
" XO+ooOO+@++oX%>%3%3%3%%3%3%3%3%3%3%%3%%3%%33%3%3%>% oX..X o#@-#",
" Xoo+ooX+#+oO+$>$3$3$33$33$$333$3$3$$3$$33$3$33$3$>$.o...O #+O+@",
" +@##@+X@o#OOo$>$;$;$;$$;$;$;$;$;$;$$;$$;$$;$$;$$$>$.#+oo. X#---",
" o-o.oX.OoOo.o$>$$;$$;;$;$;$;;$$;;;$$;$$;;$;$$;$;$>$.XoXX. o#+#o",
" .Xo.oX.o.....$>$$$$$$$$$$$$$$$$$$$$$$$$$$$$$$$$$$>$ ....  .....",
"              $>$$$$$$$$$$$$$$$$$$$$$$$$$$$$$$$$$$>$            ",
"OoOo@oo @-#---$:$$$$$$$$$$$$$$$$$$$$$$$$$$$$$$$$$$:$ X@Ooo+.@-@@",
"#-@-#+X --@--@$:$$$$$$$$$$$$$$$$$$$$$$$$$$$$$$$$$$:$.o#o#--#--@+",
"###-##. #@+XO@$::::::::::::::::::::::::::::::::::::$XOO++-+o#---",
"-#--#-. OOoo#X$$$$$$$$$$$$$$$$$$$$$$$$$$$$$$$$$$$$$$X+O+ooO@+#--",
"--#--#X -oooo.O.                                    .O###@-#---#",
"OX#o@#o o...XXo....    XX..... ...... .... ..   ....X###-##-@--#",
"--+--+.               o+o##.X. O#+#XX .O#+XXo.. Xo#oo-#@#--##+--",
"++-+ooO ..ooOO+ooOO.. #-O-+XO. #-@-oX o#O.oo... .+#++X+O@oX@XXo@",
"o+@OX.. .##---@#-#+Xo #+-OOooo.##+-#+ ...XO--.X O.o+oo@+-#-OOo#O",
"oXoXo++ o+@@+--@#oo.+ oOXOo#@O Oo--#X XX#O++OX. ..#oX#--@O#---#@",
"@##@#X. ##o++#+##+X.. X.+#-#oo #---+. OO+-##+.X o+@-####---###-#",
"##O-+.X ...Xoo#+@+O.o oX-#--+X O#+-@. #---@-@XX o#--O+--@@--+@##",
"#-+-#X@ ...oO+@o++X.X O-@@@#+. o@#Oo. +-#--#+.. --@###-@o+#++#+@",
"#-@-#Oo X.X+@X+XO...X #oO++oo. O@-#O. #+o.o...o .o-#+.+OX+#oXX#o",
".O#o... .XOO@XooOo..X o.+o.o.. .@+... oo..ooo.X .XOOXo+o.XX.XXXo",
"..o..o@ +o.X....XX.X.          .X...o           X......X........"
};
