/* XPM */
static char *graydoorbloodstained[] = {
/* columns rows colors chars-per-pixel */
"64 64 20 1 ",
"  c black",
". c gray11",
"X c #202020",
"o c #282828",
"O c #2C2C2C",
"+ c gray19",
"@ c #343434",
"# c gray22",
"$ c #710000",
"% c #7D0000",
"& c gray25",
"* c #484848",
"= c #555555",
"- c #5D5D5D",
"; c #656565",
": c #717171",
"> c gray49",
", c #890000",
"< c #8D8D8D",
"1 c gray60",
/* pixels */
"&&&&&&&&&&&X &&&&&&&&&&&&&&&&&#X &#&&&&&&&&&&&&X &&&&&+ o@#&&&&#",
"&&&&&&&&&&#. X&&&@#&#&&&&&&&&&O. #&&&&&&&####&#X #&&&&O X#@&&&&@",
"&&&&&@@##&&@ O&&&&&&+#&&&&&&&+O. #&&&&&&+#&&&&#o @&&&#+ #&&&&&O+",
"&&&#&&&#O##O +&&&@&&&&&&&&&OOo&@ #&&&&&&#&&&#&+@ #&&&&O +&&&&#&+",
"&&&&##o##&#o &&&&&&&&&&#@+XO#&&# &&&&&#+&&&&&&XO O&&&&# o#&&&@#o",
"#o+oooo&&#XX #&&&&&&&&&#&&&&&&&o &&&#@&&&&&&@#@+ #&&&@@ O+&&@o.X",
"@OO+@@&&&#.# X#@+##&&&&&&&&&&@#. &@+#&&@O####@oo X&O#@o ..#oOo##",
"&#o&&&&&&#o# X#&&+o#@@@++o+@+o+X Oo+ooXXo+@oO@&O X+O+o. X@oO&@&@",
"&&#&&&+&+@o@                                            +#O@&&&+",
"&###&&&&@#++  +++++++++++++++++++++++++++++++++++++++   X#&&&&#+",
"&&#&&&@&##XX  +1;OO+++1;OO+++1;OO+++1;OO+++1;OO+++1;O   +#&&&&#&",
"###&&+#&@#O#  +;*XO+++;*XO+++;*XO+++;*XO+++;*XO+++;*X   +&&&&&##",
"@&#&@####O+@  +OXXO+++OXXO+++OXXO+++OXXO+++OXXO+++OXX   @&&&##@o",
"oooXooX@oXX#  +OOOO+++OOOO+++OOOO+++OOOO+++OOOO+++OOO   ###o.X.X",
"+X.oo.o+oX+o  ++++++++++                  .++++++++++   Ooo..XO&",
"              ++++++++++ +++++++++++++++++*++++++++++           ",
"&#&@#&&@&&&&X ++++++++++ +   ;+    ;+   ;+*++++++++++ +#&&&&oO@#",
"&##&&&&&&@@&# ++++++++++ +   ;+    ;+   ;+*++++++++++ #&&&&&+&&#",
"&#&&&&&&&&&&+ +1;OO+++++ +   ;+    ;+   ;+*+++++++1;O +&&&&&#&+&",
"##&@#&&&&&&oo +;*XO+++++ +   ;+    ;+   ;+*+++++++;*X O&#&&&&&&&",
"&&&&&&#&#+@.+ +OXXO+++++ +   ;+    ;+   ;+*+++++++OXX o&#&&&&&&&",
"O+o@+#+@ooXXO +OOOO+XX#+ +   ;+    ;+   ;+*++++XX#OOO oO.@+@@o#@",
"+#&&+@X+o@OO+ ++++++X *+ +   ;+    ;+   ;+*++++X *+++ O#o+XOOoOo",
"              ++++++#**+ +   ;+    ;+   ;+*++++#**+++           ",
" o#X+Oo@##&#o ++++++++++ +   =+    =+   =+*++++++++++ o#o+&&&&#o",
" #&#&##&&o&#+ ++++++++++ +   =+    =+o  =+*++++++++++ #&&&&&&#@.",
" #+#@#&&+&&+X +1;OO+++++ +   =+   1;;=  =+*+++++++1;O &&&#&&@#&X",
" &&&#&&##X#oX +;*XO+++++ +   =+  +<>;;  =+*+++++++;*X &&&&&+&&#.",
" #&&##+O+o+#O +OXXO+++++ +   =+  *>>=*  =+*++XX#++OXX &&&#&&&++o",
" +&++&&@X.&&. +*******.O +   =+ +=:=*   =+*++X *++OOO &&&&&+&##X",
" +&+&@Oo+.#&. +*++++++ X +****+*****+****+*++#**+++++ ##+++@OoO+",
" ##&@##&+.#@o +*+.++.+ . +++++++++++++++++*+++++%++++  XX.ooXooX",
" ####@@+.+#OO +*++++++ ..******************+++%%+++++           ",
" .oOXXoXOo.&. +*++ =++ .o++++++%++++%+++%%++++%++++++ ##@# .Oo+#",
" ..X.o+oO X.. +*++ ;++ .o+++++++%%%+++%%%%++%%++++1;O O&@o #+&&+",
"              +*++ =++ .o+++++++%+%%%%%%%%%%++++++;*X +&#O @#&##",
" +o+X@@@O#ooo +*++oo++ .XX#+++++++++%%$$%%%++++%++OXX @&+. ###&O",
" @##@+&&&&&#O +*++++++ .X *++++++%+%%%$ ,%%%%%%%++OOO @#+X O@+&#",
" @XO#Xo+##OX. +*+ ++ + .X**+++XX#++%%%%,,%%%%++++++++ ##+. o@&&#",
" Oo@#+X.O+#+. +*++++++ .o+++++X *+%%%%%%%%%++++++++++ @&@X @+@o#",
" +#&&#+Xo##&X +.       .o+++++#**%%%%%%%%%%%+++++++++ @&o. oo&##",
" @+#@+#.Xoo&X +OX......XO+++++++%%+++%%%%%%%%++++++++ &X.X #&&+#",
" X++oo++@++O. +1-ooooooOO+++++%%++XX#+%%%%++%%++++1;O +.X. o@##@",
" oXoOOXO@&OoX +;*XO+++++++++++++++X *+%%%++++%%%++;*X @@@# #+O@@",
" +++#++X@+#+o +OXXO+++++++++++++++#**+%+%+++++++++OXX #@+X Xo#&O",
" X#oXoo.Xo+o. +OOOO+XX#+++++++++++++++%+%XX#++++++OOO #++. O+o@o",
" ....OX.X.... ++++++X *+++++++++++++++%+%X *+++++++++ Oo.  .....",
"              ++++++#**+++++++++++++++%+%#**+++++++++           ",
"oX.OoOX X&+o. ++++++++++++++++++++++++%+%++++++XX#+++ ..XO+Xo++o",
"#&+&##X @##&X ++++++++++++++++++++++++%+%++++++X *+++ X@#&&##@++",
"#&O&#+. +++o. ++++++++++++++++++++++++%+%++++++#**+++ o++@Oo@&##",
"##&@#+. ++oO. +1;OO+++++                  .+++++++1;O ooooO@@#&+",
"@+#@@#o #O+.. +;*XO+++++ +++++++++++++%+++*+++++++;*X @O@@@###&#",
"oo@OOOo X...o +OXXO+++++ +++++++++++++%+++*+++++++OXX oo&#o&+##&",
"#O@#&o.       +OOOO+++++ +++++++++++++%+++*+++++++OOO .X#&#+#O+&",
"X+&+oo. ...+. ++++++++++ +++++++++++++%+++*++++++++++ X.o.X#X.Oo",
"XXOo... .o+#. ++++++++++ +++++++++++++%+++*++++++++++ .o#+&OOXXo",
"o.XXoo@ .+oo. ++++++++++ +++++++++++++%+++*++++++++++ .XoO+###+@",
"@+##o.. oO.O. ++++++++++ +++++++++++++%+++*++++++++++ X+@###@###",
"OoO@o.. ..... ++++++++++ +++++++++++++%+++*++++++++++ .+oo#+X+#+",
"O#@#ooX ..... +1;OO++1;O +++++++++++++%+++*+1;OO++1;O XXoo+Oo+oo",
"O+o@@o. .XX.. +;*XO++;*X +++++++++++++%+++*+;*XO++;*X X..X+XXXoo",
".XoX... ..X.. +OXXO++OXX.*************,****+OXXO++OXX ...X....X.",
".....OX o....                                         .........."
};
