/* XPM */
static char *east_wall[] = {
/* columns rows colors chars-per-pixel */
"64 64 140 2 ",
"   c #261B1C",
".  c #2A1E1E",
"X  c #2E211F",
"o  c #2B1F21",
"O  c #2E2122",
"+  c #332525",
"@  c #382725",
"#  c #362926",
"$  c #3A2A26",
"%  c #352728",
"&  c #362929s",  c #433531",
"<  c #493632",
"1  c #463933",
"2  c #4A3C35",
"3  c #463B39",
"4  c #4D3E39",
"5  c #503D35",
"6  c #523F39",
"7  c #4E4136",
"8  c #4E4139",
"9  c #524436",
"0  c #564937",
"q  c #53443B",
"w  c #58473D",
"e  c #57493B",
"r  c #5A4B3C",
"t  c #5F503D",
"y  c #604E3E",
"u  c #61523E",
"i  c #544641",
"p  c #564841",
"a  c #5C4C42",
"s  c #554A48",
"d  c #5A4D4B",
"f  c #5F5042",
"g  c #5F5149",
"h  c #604F44",
"j  c #614F49",
"k  c #645444",
"l  c #695644",
"z  c #675844",
"x  c #6A5A46",
"c  c #655549",
"v  c #69574B",
"b  c #66584A",
"n  c #6C5B4B",
"m  c #69584D",
"M  c #6A584D",
"N  c #6C5B4C",
"B  c #6D5D4F",
"V  c #705F4C",
"C  c #685750",
"Z  c #665952",
"A  c #6A5A50",
"S  c #6D5C51",
"D  c #6F5E51",
"F  c #6E5D52",
"G  c #6F5E54",
"H  c #715E51",
"J  c #6F6048",
"K  c #6F604B",
"L  c #71624A",
"P  c #72624D",
"I  c #73644D",
"U  c #74654C",
"Y  c #78654F",
"T  c #77684F",
"R  c #6F6051",
"E  c #6F6158",
"W  c #706153",
"Q  c #736550",
"!  c #756751",
"~  c #746255",
"^  c #746357",
"/  c #756556",
"(  c #786655",
")  c #786657",
"_  c #766852",
"`  c #776856",
"'  c #796B52",
"]  c #7A6B52",
"[  c #7A6C52",
"{  c #7B6A55",
"}  c #7A6C54",
"|  c #77675A",
" . c #796758",
".. c #73685A",
"X. c #796959",
"o. c #7A685B",
"O. c #7C6B5B",
"+. c #7D6B5D",
"@. c #7E6C5D",
"#. c #7E7058",
"$. c #7D6D61",
"%. c #7F6E61",
"&. c #806D55",
"*. c #806E5D",
"=. c #807157",
"-. c #817359",
";. c #827459",
":. c #83725D",
">. c #89775E",
",. c #8A7B5F",
"<. c #816E61",
"1. c #817061",
"2. c #847362",
"3. c #847263",
"4. c #867465",
"5. c #877566",
"6. c #877962",
"7. c #8C7B64",
"8. c #86756A",
"9. c #8A7768",
"0. c #8A796A",
"q. c #8B7A6B",
"w. c #8C7B6A",
"e. c #8C7B6C",
"r. c #907E64",
"t. c #907D6B",
"y. c #8F8063",
"u. c #918266",
"i. c #94836B",
"p. c #98866B",
"a. c #96886A",
"s. c #9B8A6D",
"d. c #968772",
"f. c #968870",
"g. c #9C8E72",
"h. c #968978",
"j. c #9F8F7A",
"k. c #A08F71",
"l. c #AB9D7E",
"z. c #ADA081",
/* pixels */
"c a a a k / | a 4.) c k c b b b r r a b x k r 0 0 0 0 0 r r r u z u : e x x K K I , D @.<.0.e.e.e.0.<.~ c a c M D W ~ H q % * C ",
"c a a a a D W 4 %. .l k c k b b c f a q n c r r 0 0 0 0 0 r r t z x 2 0 I L L ' } : M @.<.4.4.4.0.0.<.~ M c c m M D M 4 , * * c ",
"M k a a a v M & 1 q 9 2 1 1 b b b f * & B b k r r r r r r r t u x I 9 r ;.[ [ -.#., c X.X.@.<.1.4.2.@.W c a a c M M 4 * q 4 $ j ",
"q 2 2 2 2 4 q O   . . . O + 9 f a 7 . O q r q 9 2 > > > : > > 2 7 9 > 8 ! ! _ _ Q > , 2 1 1 2 q 4 2 8 2 , : : : 2 q * * ; * + 2 ",
"+ = * * : : : ; @ + + + $ $ $ + # * = : 1 2 1 2 2 1 1 1 > = * * : $ $ : 9 1 * : 7 a B W W X.X.B 2 X * q q q q w r $ . ; * @ $ + ",
"k B c b v N H l y y l l y y k + * r n P ! W c x P P Q ` x k l n ) P l &.>.! : 9 x ! W / X.1.i.2.r + 1 P Q ) { :.7.k + . X : y k ",
":.n c B b f k c c n V V V ' P # = c P n b k r r r r 0 0 9 0 r x n V Y ' T ) V V x B P / X.@.w.w.k $ 1 ` I *.u.w.:.T r : $ r ' T ",
"L x k r 0 9 9 9 9 r r r k I P + 2 W ) b c t r 0 0 0 9 9 9 9 0 0 0 r x V V V ) P x B W W W / 1.2.k ; , ! I n ` ! K x T U l O.O.n ",
"x x k r 9 7 7 7 9 0 k k x ` P # k *.' n c r 0 0 0 9 9 9 9 9 0 0 r r u k l l l l x x B P B B X.2.W * : ! ' x z k z k O.i.p.u.I x ",
"c c t 0 9 7 7 9 0 r c V ' :.` = B :.! P b k r r 0 2 9 0 0 0 r r r r y u k l l l x x x b B ` X.4.W $ : ) ' K x z k z x I K n x x ",
"u r 0 9 7 7 7 9 0 k n ! -.6.:.> k -.{ ! n c t r r r r r 0 r r r y y u k k l l l k l c b b R / @.c + , ` ' K x z z x z u r t k z ",
"t r 0 9 7 7 9 9 9 r n ! -.7.6.2 k :.:.O.P x k r u u r r r r r u u k k k k k k k k c k c b b D X.c + k :.I x x x x x z k x u u u ",
"u r 0 9 7 9 9 0 f 9 0 n :.7.:.e X.:.:.O.P x k k c k r r r r k l x x c l x l k c c k k c c c b W k # M -.P n x x K K x k u u u u ",
"t r 0 9 9 9 9 0 k b , 7 :.:.K a O.:.O.P b n x b c k r r r k x n n x x b x l k c k k c r a k c D a $ k ` K n K L U L x k u u u u ",
"0 0 9 9 9 9 9 d a c a 1 ` } f # = , : 1 b Q c k f 0 2 7 9 9 1 7 a p : 2 a r 7 2 = , 2 & + $ * , , + , c b k u b x b x k t t t t ",
"= * * # * = = = = = = = > > * 2 1 > : 1 9 1 # + + 2 4 2 , > : : , , = O = = & % O O O : h k 9 # > = * * = = # $ = $ # = > > > : ",
"k r 0 = 2 0 r k x L n n P ' x T ) =.>.u.i.:.f + O 8 D ~ /  .1.4.4.2.B , c M c c 4 * & d 6.p.i.n *.! n b c c k f k a > e b b b k ",
"r 0 0 = 1 0 r t c K -.-.' O.' ' I ' 7.g.l.z.s.a O = e b N ~ X.@.4.X.1 & i c m ~ M c c A O.r.k.r.` k u t t k u k ! :.M k b f k c ",
"r r r > 1 0 r t k k n P x x n P I ' ;.y.s.k.g.-.+ 1 k b b B / @.<.| q & q a a k k c v n Q { 7.r.x t r r r r r u k n ` k t r r r ",
"t f f > 1 r k k k k k x x x x L P I =.,.u.u.u.' * p W B H W / O.@.@.q * i a a a a k k c l b V V k u r r r r t k k u k k k t r r ",
"0 f b 1 = r k x b k x n x x x x L I O.:.7.7.u.u., q B H H / X.@.@.@.q * p a p p p a k k k l b x k u r r r r t k k k k k k f r r ",
"r c n , * r x x x x n n n n x n I T [ =.;.:.u.a., q D W W / @.1.<.@.p * 4 q p p p a k k k c x x k t r r r r t k k k k k t f k c ",
"n K P 1 + r x x n V V V V n x P O.-.' O.O.I u.y.> q W W / X.@.1.1.X.c * i a p p a h k c c l x x k u r r r t u u k k c k b ..Q K ",
"K P P r $ 2 x n L n V L I I L n n ' ' O.=.=.,.;.= a ` / X.@.1.1.1.X.c - q h p p a k c c x x x x k u r r r t k k k n n R +.` ' n ",
"r x P k * > x n n n n P ' ' ! q = r ' =.;.;.' r + c @.X.X.@.@.1.@.D g * 3 k p a a k c k c x x x z u r r r r t k x B B Q ` ' I 9 ",
"X # 2 r $ + 9 0 r 0 r r 9 7 , O   $ k b x k * . . , g k q k c g a q 8 + * q 2 2 2 q q 2 1 1 7 9 2 > 2 7 > > 1 8 0 9 q q 0 9 1 # ",
"= : * : * + + # $ * # + + + + + : r b b k 0 $ * 1 > > , $ O * 2 1 , = # + * * * * * = : > , , 1 > * * O O : : : , 4 , * + O + $ ",
"/ X.| W H M M c c H h + + + + p :.6.7.w.w.:.x n 7.7.2.:./ = , k N c h a a a p k c c W / / N W ! / x c * * Q *.Q  .2.2.k ; # k ) ",
"M k p c M M D M M @. .2 + + + E h.X.B K b c c b :.6.f.g.i.2 * p k a r a a r e a a r f k d c P n n x l * 1 H H B H ~ X.O.q , W 2.",
"k 9 1 7 q e p p q c @.v : + # A 1.W b k k k f b B 2.d.w.7., , a a r 0 0 0 q q 0 0 0 r q d c c c k k l 1 H  .H H Q ) / ~ k q b W ",
"r 9 7 2 7 8 8 q q p  .| w $ & c @.W c k k k k c b X.0.6.O.* 2 g a a r e q q q q 0 r 9 i a a a h h k k q  .V N H Q / Q / ~ w a k ",
"e 9 2 1 2 7 2 8 q p H | h , & p W b c k k k k k b P ! O.M * 1 k a r r e q q q q r e 3 s p a p a a k a h Q N B H Q ) ~ V *.c q a ",
"e 7 1 1 1 1 2 7 q d M D a 6 * p W n b c k k k k b B B B r = , c a 0 0 0 0 0 0 0 e e p a a r a a k x c a W N V Q / ) W N /  .2 9 ",
"q 8 2 2 2 8 8 8 q p k M a 2 * i / B b c c c c c n n n k 2 : $ a f r r r e 9 e r a a a c M c k c B W k i W H / X.X.X.~ ~ / @.q e ",
"8 4 8 q q q 4 1 , 1 2 2 = # + 2 c f a a k k k k n n K n : * & 9 a e e r 0 1 1 1 , , , 1 i 8 > 2 2 = = , q q a c M a q D c 8 2 a ",
", , 1 , = & O O O O + + O O * 2 4 q , * = = > 1 2 9 a a > O O + & # + O # 1 , = * * * * = = = = = = * # * = , , * 2 4 4 , * = , ",
"a a k a p p & + 2 p v j 6 q c H  .@.W M c a a c 8 a H D B B B k g r : . + c <.X.~ D B W X./ ~ H H Q W W X.:.2.@.1 %.d.<.X.M k a ",
"e q q e e k * & p a M B D M M D ~ W B b c a h k a ! ` O.2.p.w.:.) V y 1 O * W <.B c k c H D  .*.@.) ) *.w.d.j. .= c @./ D c a r ",
"r e q 9 9 q * * a a h k k c M N B N B x c k h k b W ! ` :.2.:.O.! V c w + + q b a a a a c c k M M b B ` :.:.-.N , D :.W M k p r ",
"a p p q 9 9 = & a k c c c b H H V Q Q V b c k v B Q ! O.:.:.-.*.` ! b r = q k c k k a a k c k c b b B ! ` O.{ ! 2 ~ 2.X.B c k a ",
"c k a e q q = $ a M M b M B / X.) Q W V x x v v B Q ) { *.O.*.{ ` Q x c : q k k k c k k M B b b b b B Q ) O.*.{ , c 7.*.W N c k ",
"D b g p a a : , v H H N B W ) O.O.Q Q Q W B v x W ) ` O.*.O.` ! ! P P b = 8 a k c c b b B N v c c c b W ` O.:.) * 8 0.:./ H B N ",
"W B c k c c = q ~ ) ~ H Q ) ) W H W Q ) ! Q N V ! ) ` O.O.` ) ! P P P n = 8 a k g c b M k k k a a a c B ) *.:.H , = 4.4.X./ ~ W ",
"W D c c M c $ c O.O.*.X.) O.k & + w ) O.! N Q ) ) v k ) { ) ! P P B B b * 2 a a a c k p g c c r r a c B Q O.:.N 2 + D w.2.@./ W ",
"B N c c M a + 4 M M M c a 4 & o O , c p : $ q p r + + p V q 2 q 9 7 1 * O , 2 2 2 2 1 8 d p a q a k c N ) :.:.p $ O 1 X.X.W M M ",
"4 4 2 * = 2 , , q q q 4 : 2 , + + : , : * * * = : = * * : $ # + + # $ : = * O . + + + O + # + + 2 q q , 2 A ~ = O + + * = : , 2 ",
"D D q * i v Q O.6.7.7.6.Q ` ! q * k b l k l x B Q Q n r k c k k k k c P ` P : + k P P k 0 0 q : O O + + + + & + + + + 8 c c k c ",
"k v a 1 X.B O.2.7.7.7.7.6.:.:.k * a b l k l x B P Q V x P ! P P x k l ' 7.:.r : ! ;.:.O.! P b * + # $ + + + $ 2 4 , + * c k k h ",
"h k M a k k b Q ! ` O.:.:.7.w.n $ q b k u u k l x x x x l k k k k u u u z x k y z x L I I P n 1 + 5 v w q q w k c c w * q k k k ",
"h h c c k k B V P ) O.:.:.w.w.n & 0 x k y y u k l x x l l k k u u u u u u u k k k z x V P ' ` r * v <.~ c a a a k v v c c k k k ",
"k k k h h c P P P / X.:.7.w.2.2 O q n k y y u k l x l k k k k k u u u k k z z z x x L n x I -.k * a v c a r 0 q r a h k v b v k ",
"b c k h h c V ! ! ! Q O.:.:.*.q & * a k u u k k l l u u l k k k k k z z z x x n L P I L x P :.k $ a h a w 0 q q q w p k v N B B ",
"H N c k h c n P Q P V Q ` O.` c * - Z Q k k k k l k u l x k k k x k x x x x x x L I ' ! P { :.a $ p a r w q q q 0 q r h v H W Q ",
"Q Q B c c c v n V P P P Q O.:.B * 1 @.! x l k k k k k l l k k k z x k x n x x x n I ` ` ` :.:.c * a h a r q q q q 0 q a b Q ` ` ",
"*.O.! B c k b n V P P P ! X.O.k $ : V P P V l l x l l z x l k k x I r r L x z k z x I ! ! O.:.b * p k a p q q q 0 w a k N ) *.*.",
"N a q q 2 1 l x V W Q Q ) O.W : % * W ) { ` P V V V l I x k k x P ` 7 2 t r r r u k x L I { :.c + , q 4 4 1 : : 2 q a a c a a c ",
"& + + + & $ & & * 1 1 2 2 q 2 & + % 4 q q q q 2 q 4 : r 2 : > 1 2 2 # X # * : : > : 2 0 r r p 2 O * * % o + * $ $ = , , * O O + ",
"q q a c D D , + : p p p p 2 k c M q p k c k r a k k k e = r c P ` a + 9 V x l V k # # q a c M k q ~ *.h + 2 a c c c k M p % * p ",
"H H |  .%.8.q * a m v c / A B b / O.<.2.7.O.B n P ! ! c 0 I T 7.a.-.: 7 i.p.7.,.x : 4 G X.B H ) 0.i.t.*.< q a h p q a D D , * | ",
"M M M c v D h q H N v k k b c c c b B B B b l c c c r r f t u K [ O.2 9 u.u.{ L l 2 8.@.) H Q ) *.*.@. .M a p p p a a M H 2 1 D ",
"M k h k v D h c ~ N k k y y k c k k c b b k y r 0 0 9 0 r r z U [ O.2 9 7.O.V x x 1 M 2.O.O.<.1.*.*.O.W M c a a a p a k W k q D ",
"m k k k m ~ c A @.M k y y y k k k y k c c k r 0 9 9 0 0 r t z x L T > 0 7.' L x n 1 c O.*.2.9.9.1.*.O.H v c h h a p q q m c a W ",
"m k k c M | | D <.H c h y y y k r r r k k k r 0 9 9 0 r r t k z k x : r :.O.I V V 1 M  .@.4.0.e.4.1.X.W M k h h k h h a M c p W ",
"c h k k M W @.j <.~ v k y y y y r r r u k r r 0 9 9 9 0 r t u u u k : f K P P P V 1 D O.@.4.e.e.0.4.@.W v c k c M M D D | c 4 H "
};
