/* XPM */
static char *north_wall[] = {
/* columns rows colors chars-per-pixel */
"64 64 125 2 ",
"   c #2B1F19",
".  c #2E221C",
"X  c #33251E",
"o  c #37281F",
"O  c #3A291s22B",
"=  c #412F24",
"-  c #433226",
";  c #493527",
":  c #44342A",
">  c #49362A",
",  c #46382D",
"<  c #4B3A2D",
"1  c #523D2E",
"2  c #4D3D31",
"3  c #513E31",
"4  c #4E4034",
"5  c #544234",
"6  c #5A4535",
"7  c #5C4837",
"8  c #564639",
"9  c #594739",
"0  c #57483A",
"q  c #5C4A3B",
"w  c #604535",
"e  c #624936",
"r  c #624E3D",
"t  c #684F3C",
"y  c #65513F",
"u  c #6A523E",
"i  c #5E4E40",
"p  c #5F5040",
"a  c #624F41",
"s  c #655342",
"d  c #6B5643",
"f  c #6D5946",
"g  c #635348",
"h  c #6B574A",
"j  c #6D5B49",
"k  c #705541",
"l  c #715B46",
"z  c #785D46",
"x  c #735E4A",
"c  c #785E4A",
"v  c #6A5D5C",
"b  c #75614D",
"n  c #79634E",
"m  c #7E684F",
"M  c #766350",
"N  c #7B6551",
"B  c #7D6854",
"V  c #7C6954",
"C  c #7E6854",
"Z  c #7F6C56",
"A  c #78675A",
"S  c #7C6B5B",
"D  c #7F6C58",
"F  c #7C6D5C",
"G  c #81664F",
"H  c #806851",
"J  c #806853",
"K  c #816A54",
"L  c #816B55",
"P  c #816B56",
"I  c #826C57",
"U  c #836D57",
"Y  c #836F5A",
"T  c #846E59",
"R  c #856F5A",
"E  c #876F5A",
"W  c #896F5A",
"Q  c #847057",
"!  c #877058",
"~  c #867059",
"^  c #84705A",
"/  c #83715C",
"(  c #85715C",
")  c #86725C",
"_  c #86735D",
"`  c #87735D",
"'  c #89745D",
"]  c #8A745D",
"[  c #89755F",
"{  c #8C755F",
"}  c #8D785F",
"|  c #90765D",
" . c #947A5F",
".. c #867562",
"X. c #8A7660",
"o. c #8B7863",
"O. c #8E7862",
"+. c #8D7A63",
"@. c #8C7965",
"#. c #8D7A65",
"$. c #8F7D68",
"%. c #907660",
"&. c #907962",
"*. c #927D64",
"=. c #917E67",
"-. c #917E68",
";. c #947F68",
":. c #947E6A",
">. c #968167",
",. c #988067",
"<. c #988167",
"1. c #958169",
"2. c #94816A",
"3. c #9A856B",
"4. c #9E896E",
"5. c #9A8871",
"6. c #9D8973",
"7. c #A18A6E",
"8. c #A38C72",
"9. c #A08D76",
"0. c #A88F72",
"q. c #A99276",
"w. c #A79279",
"e. c #A99379",
"r. c #B29B7E",
/* pixels */
"7 d f z n { C 3 n H H H K f b b b b C E ` @.6.S s E E N N N E E ~ x 2 ` ` Z N C C C N f : D X.` ` ` ~ 1.x n H C n n H ~ C x l l ",
"7 y l n E &.O.5 n N n n E C b b x x j I ` @.9.F 0 ~ E K N N K E ` q < ` O.[ E E S E / b : C 1.*.*.X.` :.s n C b z c H N f l l x ",
"y d f x ~ ,.;.2 l n b x n I C x l q , b ~ o.5.M 0 [ [ ~ K I ~ E @.9 X M *.*.X.E V V S M : M 5.9.5.2.O.@.5 s n f d d e < # < d n ",
"9 7 r s d j d @ - < < 2 5 q q 5 7 < X 5 q d x 0 @ 5 s s q 5 5 3 i < . 2 j b j s 5 5 < , o , 0 d s i 0 q - # 5 5 < : - - O # < r ",
"< X - 5 t u t -   = 5 7 %   . # - > : - > 5 q 9 X + > 7 7 6 < # > 7 7 9 6 5 % , j f 7 9 5 < - > > @ & 5 7 q r 7 5 6 t e 6 6 1 6 ",
"b 5 - l H n G l - u ;.8.d X X 1 7 f f s f d x N 9 5 d I H n k < d E N n n z 1 9 1.O.~ C l x k u d - f O.[ ` C n x x n n k e u x ",
"y d r b l l b *.n E 4.8.E = X : d x j s s s d x x c [ [ C N N a f C x x n n f q *.*.O.Z x b *. .z < E *.*.X.N b x x n H z e d d ",
"d y d f f l b O.,.3.8.8.O.: # < f M j s s d j b M C N N N N N x d n n n n n n 7 X.1.[ C x b [ 7.n < j O.1.O.Z b x x x n x y d d ",
"d d d d d l N O.3.8.8.8.&.- & q b D M j h h j M C C N N N N N K ` b N N N N N 7 M 3.O.I C I ~ ~ ~ 2 f O.1.*.~ N x x x x x r r y ",
"d f x x l x N [ 3.8.8.8.;.< & 7 D ` N x j h j M E ` C N N N b n N n N N C N N f q [ C I [ [ ~ I I 2 f O.1.1.o.~ N x x x f y r r ",
"s f x x x b N ~ *.3.3.3.O.5 @ q / D b j h j b M Y ` D N x b x x x n N C K K C x < C C I [ [ ~ C C 5 d ` o.O.@.[ Z b b x f s 7 r ",
"y d l x x b C I ` *.*.1.*.s X d C j d s d j M C E E C b j x x x x n N N K K K j < n C C ~ ~ I C C 5 d E ~ ~ ~ ` E N f s j d 7 r ",
"y d d f l x n N N E [ *.O.d . q b d s s d j M C D D C C x j x x x b N N K K C d < b n C I I Z C C 4 d Z E E S Y E C 0 s x f r r ",
"y d d d f x n n N C I E b r . 2 h d s s d j M N C D E C b q 2 < q d x N N N x s - j b N Z I C N C 2 s C Z C C C C M , q f s q r ",
"r r y d s f j s s f f s 9 5 . + p h s s s d d p 0 d h d r - + + q s r s s s d 4 X d b b C C M b N 2 , d h h h h d s # 2 7 5 5 5 ",
"# # # % & : # X X X X + @ % X . 2 5 < : & # @ @ % @ + # 1 = = X + # - & & @ - - # 2 2 , , 2 4 5 0 , @ # @ # @ @ @ @ @ . . . . X ",
"% - # . @ # - - X X & < 9 q r q 9 7 7 3 > > < > 5 y t d l 7 > % 1 u C x d 5 9 r d f d 2   2 q q q q 7 9 5 q 0 9 y 3 ; < < : # # ",
"2 5 < X = 3 t s 2 < q s f j b C C C C C H b l l b n n N { n > # r E E H n d u d l x E d X s x j s 9 9 7 q r r q f 7 : x f 9 3 2 ",
"r s x 2 2 b N N b s 0 y s d x b b f f x b C b b b b n I E H > X 7 E E H n x l l x l x s % d b x s 9 5 9 q q q q s d 4 x d s r r ",
"r r j 0 5 C C C b d y y s f f x x f f j x b b b n C [ } [ b 3 X r [ ~ H b x x b x b x d : d b x s q q q q q q q s s , s d d s s ",
"s r y 9 : b C K N j d s d f f b b x j j x j j l C [ ,.4.;.[ 7 # 9 H E H n n N N N N n d # 2 s f s r q r q q q a s s 2 s s y s s ",
"s s s r < b n C N j s s s s f b b b j x f f b x E ;.8.8.4.,.u - 7 x n C n C K I I H N s # r b j s y r r q 0 9 q s d 4 s s y s s ",
"d d d s 4 N C C N b s s s s s f b b n b j ` b b [ 3.q.8.8.4.t 1 d x n N C I I I I H C f : f C b f s s r q 0 0 0 i s 5 s s s s s ",
"h h d d : M C C N b f f d s s d b n Q I C C b N ~ 4.q.8.q.~ 1 5 l z n n N H I I I C N b 2 j I N f f d y q 0 0 0 s d 2 s s s d f ",
"h h f d @ 4 M N N b j j f s d f j b Z [ ~ b n n I } 4.7.7.d - 6 l k l n H E K K C n n b , f I N x f d s q 9 9 q d h , q d d h j ",
"q 0 q 8 X X 2 5 q s f s s y q q s f b x f s s f y 7 y d d > X > 9 7 e d b b s q 7 9 q q # 9 f d s y s s q 5 5 2 , 4 % 2 q 0 q p ",
"# : , , # : 2 < < 5 q q : : q s q % < 2 5 5 s y # # > 1 > ; - = O O o - 5 7 t s d t 1 > - % : : & # @ & : % # @ . X - # @ . . # ",
"5 s f b s d b C ` C n C j 7 [ 3.[ # q n C [ 7.3.: 9 U %.[ n k u w e > # x E [ 8.0.| n d t 3 H K C s . % 7 7 q 5 # % 5 f r # + : ",
"s N ~ X.N x b n n x b C Q K &.4.1., r C N C [ >.< 7 K ;.;.` N n x H t # x K E ` &.[ K C N 2 3.e.1.[ , - y s y q ; - 7 C x < @ < ",
"x b ` X.C x b x f f x n ~ &.>.4.4.q q N b C C N 2 y d x O.K c x x K d # l K E K C N n n b < 3.r.3.*.d 5 d s 7 r q 9 j E E s % s ",
"E C C E N b b x f f x N [ &.} { 3.q 5 N b N C b r d r x E N n n n N f # f K N n b n n n x - N 8.3.*.C d f f 7 q s x C E @..., q ",
"` ~ C N b x x j f f x N ~ { N I [ 0 : N N N E I b f r N K n n n n N r + g K n x x n N N N - b 1.;.[ C x x x y s s x C E o.S < q ",
"D ` Z N b b x f f f j n I n n C I q @ x I I ~ [ I b x E N x n n n x 2 $ v C n b l n H E C : C 1.O.` ~ C x f j s s j M C D q X - ",
"q Y S V b x f j b x f f 7 u C K I s X r I I I ~ I b C E N x 7 3 5 r 3 * A ~ C l y q q q 7 X 5 O.` ~ E f < 7 f d j b b b s :   . ",
"# < f f s y y y s f d < = ; y f y 5 . 5 N N N C N b N N x d ; # + < 3 @ q 7 3 > ; > > - O X X < 5 , & o . X & - < q d s 5 % X X ",
"6 1 : : # # # # # % : ; ; > 1 6 1 > # - 2 5 2 5 5 5 5 4 2 5 < # X 2 3 % < t t u u u z z 1 ; 5 ; 1 > ; ; > > # X . < f y < - 1 6 ",
"n G u 7 6 - X = ; - 6 y y n [ E n e 6 d f d x b N C N x j f N f 9 6 - = d  .H n m n {  .n u u e y u t u n d r - . 7 { &.n f d k ",
"Q *.&. .*.d ; X - 1 f l d d b ~ { [ t x [ ~ Y ~ [ X.E N b j b K n t < # r 4.4.{ ` ` ~ ~ I n x x x b C ~ *.[ I 9 . y 1.3.;.} H n ",
"I [ *.4.r.,.u o > b b f d d d l C I b x n N C ~ X.o.[ N N x b C N d ; % y 3.6.*.~ ~ I C C C N b x b C I ~ E I u # < *.1.[ C n n ",
"I Q ~ O.3.4.d o : n b j j f j x C ` n b N C C I ` O.X.~ I C C I n t # = b @.1.@.~ Q Z N C C Z N b b C I [ K X.N > < ~ } I n n m ",
"I [ [ [ O.*.y X 5 b j l l j b n C C b N C E C E ` O.*.O.` ` ` E k e # < E ` [ ` I C C N C Z I I N C I O.O.~ O.N # y 4.*.I C n m ",
"I ~ [ [ [ [ y O 7 n l x x l x b C N b N C C C E ` O.*.@.[ X.O.K d 7 @ % d C C C C C C C C Z ^ ~ ~ ~ ~ O.O.O.O.r . s 7.*.m n n n ",
"C I Q ~ ~ ~ d 7 x n b x b x l b N N n N C C C C E ` X.` ~ X.O.N k 6 X X 2 s d x b C C Z b j [ O.o.[ O.*.O.O.O.9 . 5 ,.*.I m m m ",
"n C K Q ~ ~ 5 d I C n b l l x n C C n n N N N N C K I K C E ` E x 1 . # q M C n n C ~ ~ b 2 [ *.*.O.O.*.*.*.*.d X @ j *.[ C m n ",
"d j b b n b & # d n b x f f x b N N x f s q 0 q d d d d d s s q 6 < X . # q b b x f f f d @ s N M M M D ~ C h r # X # b ~ x y y ",
"% & : : < < - X # > < < < < < < : - - - # @ X # : : - - , 2 q d x k 6 - = : : < 2 # # & # @ # @ @ & , 0 0 5 5 7 < < 2 q q < % X ",
"s b C b b b d 9 1 > > > 6 u d -   X > s d d q 5 j d 9 7 x N K K E W G u l N N M C 7 z n r 1 1 % # < 7 K ` E C b x n E ;.4.{ f : ",
"j C ~ C b l d f y > 9 b x C [ l # X < b C C ` s x N M j M N M M N N E E C C ` @.C r E I K l x d > : f C C N j f f x N I 4.7.E < ",
"j C C n l f d d d 5 f ` n l x E 7 # h @.Z N N d d j j x N C N N N N N K E C x *.E 5 M b x x n E n 7 d M N x f d d f b N C E E 2 ",
"j I C n l f f f f d d f f f f n s 5 :.o.C M x s s s d x C C N C C N b N C X.j a a : j M x x x N C s s N N x f d d f x n N N K 7 ",
"s Z C b x x l f f f f f f f x b a q *.[ I M d s s s d x C C N N N x x M N C ` E x ; a N x x x C E q d C C N b j f f x b b b C q ",
"s N b b b b x x l f f d d d f x r q 1.X.E M d s s s s x N C N N x x x b N N C K O.2 a C N M b C ` q d C C Z M x x x b n x b C q ",
"s N n n N N n x d f d d d d f x 9 s 3.@.E M f s s s s j M N N N j x x x M N N C ` 3 h E C C N C E 5 h Z C E C f b n N N x b C s ",
"9 b N N N N n b x d d d f l l x 2 q 1.O.E N j s a s d h d x N N q f x x x N n N K 2 b E E K C D ~ 0 h C Z ~ E x x n C C N b N j ",
": f b n n N N n x y t f x n n b - : E ` C N j s s d h j s 9 M C 9 x x x x b N b N < x C N M C S ` d 0 V C D $...s N C K N x b x ",
"2 x x n n N N f 3 # = 7 l b l y # # 5 7 9 r s q q a s j j < a x 2 f x x x x n x f - & , & # , d E x 2 M V M Y j - s N C b x x d ",
": r r r 7 9 5 > X   X - 5 7 e 6 X # - = # X X # % # = 2 0 > < 2 - 0 q q r s 9 < 5 : X X X X X # q 0 # 0 3 < < - . # 2 5 < < 5 2 ",
"5 9 6 7 f N n > ; > # = - 1 6 7 6 5 6 5 5 3 < : X X 3 q q q 6 3 1 = % 5 q s d r - 3 u 5 # q t e e y 5 < q s d d a r t s s d e 7 ",
"d l x x E 8.3.7 N n u t k H I c x x n N N N N x % : N I K K I n f 5 3 ` *.;.1.4.5 X.8.f < ` O.E C K ;.N x N K N N N N N N x l d ",
"u d f x x [ O.q ` N n n n n n n x b N N n b C N : q K K C N C C N r 2 [ X.[ X.;.C e.w.s 2 X.O.E b b C E n n n n n n n n x f u u ",
"u d d l l n N 2 n n n n n N N n n n N N N n C x 5 N E K H N N N N h 2 ` ` E C E E E Y 5 : X.O.~ N M N N n n n n n n n x x f d u ",
"d d d f k l x 3 n n N N N H H n N N N N N C I s 2 K E E K N N N N x 2 C E C N N S E Y 0 % S [ E K C C N n n n n n N N n x f d d ",
"t t k k l l l 5 N H H H H H H N n N C C C I K 5 2 K U K C N N N C x 2 C C N b N D E E M * b ` ~ E K N N N N K N N K K N x f d d ",
"7 y l l x n x 5 H H H H H N H H n N K E E ~ [ s 9 K K C N C K K E x 2 K K M b N C C C N 2 N ` E E C C E C N K K N C K N n x f d "
};
