/* XPM */
static char *west_wall[] = {
/* columns rows colors chars-per-pixel */
"64 64 172 2 ",
"   c #2D1F17",
".  c #261F19",
"X  c #291F19",
"o  c #2D2017",
"O  c #27201A",
"+  c #2D231C",
"@  c #2F281F",
"#  c #312117",
"$  c #33251C",s
"9  c #483729",
"0  c #44392D",
"q  c #4B3B2D",
"w  c #513C2C",
"e  c #443C32",
"r  c #4B3E31",
"t  c #443F38",
"y  c #503F31",
"u  c #464036",
"i  c #4C4135",
s,
"j  c #52473A",
"k  c #544A3D",
"l  c #5B4C3B",
"z  c #5D503F",
"x  c #614E3B",
"c  c #64513E",
"v  c #69533E",
"b  c #504741",
"n  c #544D41",
"m  c #594E41",
"M  c #575144",
"N  c #5C5344",
"B  c #565248",
"V  c #5D5649",
"C  c #5E594B",
"Z  c #604F40",
"A  c #635543",
"S  c #6A5642",
"D  c #665847",
"F  c #6C5945",
"G  c #625748",
"H  c #635B4C",
"J  c #6B5C4B",
"K  c #705740",
"L  c #725B46",
"P  c #725E49",
"I  c #645E50",
"U  c #6A5F50",
"Y  c #615E5A",
"T  c #6D604F",
"R  c #73614D",
"E  c #7A644D",
"W  c #7E684F",
"Q  c #666153",
"!  c #6B6354",
"~  c #6F6857",
"^  c #6C6759",
"/  c #6E695A",
"(  c #736552",
")  c #7A6651",
"_  c #766956",
"`  c #7C6A55",
"'  c #736C5B",
"]  c #726D5D",
"[  c #766F5D",
"{  c #796C58",
"}  c #7B6D5A",
"|  c #7F6D58",
" . c #77715F",
".. c #78715F",
"X. c #7D715E",
"o. c #736E61",
"O. c #756F60",
"+. c #7E6F60",
"@. c #767162",
"#. c #797160",
"$. c #7A7462",
"%. c #7B7463",
"&. c #7E7562",
"*. c #7F7967",
"=. c #7B7669",
"-. c #7E7A6A",
";. c #806952",
":. c #826C55",
">. c #836C55",
",. c #836D56",
"<. c #816F5A",
"1. c #866F58",
"2. c #877157",
"3. c #887157",
"4. c #82715B",
"5. c #84725C",
"6. c #897258",
"7. c #8A745C",
"8. c #8D785E",
"9. c #91795E",
"0. c #837562",
"q. c #897760",
"w. c #8A7761",
"e. c #807966",
"r. c #867965",
"t. c #8B7B65",
"y. c #827C69",
"u. c #867D69",
"i. c #827C6D",
"p. c #867E6D",
"a. c #8A7D6A",
"s. c #907A61",
"d. c #937D63",
"f. c #927F67",
"g. c #957F67",
"h. c #927E68",
"j. c #85806E",
"k. c #89806D",
"l. c #8C816D",
"z. c #968063",
"x. c #988167",
"c. c #968068",
"v. c #94826B",
"b. c #96846B",
"n. c #9B846B",
"m. c #9B866D",
"M. c #998A6E",
"N. c #858272",
"B. c #8B8473",
"V. c #8C8470",
"C. c #8D8877",
"Z. c #8F8976",
"A. c #8E8878",
"S. c #938672",
"D. c #938975",
"F. c #9D8B72",
"G. c #918B78",
"H. c #918D7C",
"J. c #97907C",
"K. c #A0896F",
"L. c #A28C73",
"P. c #A59277",
"I. c #8D8B81",
"U. c #959282",
"Y. c #9E9784",
"T. c #9A9688",
"R. c #9A9889",
"E. c #A19A85",
"W. c #A19F90",
"Q. c #A9A28D",
"!. c #A4A291",
"~. c #A8A391",
/* pixels */
") | | 5.4.i ! &.H N N N C V V N N N N C ] I 2 e B.k...! ' [  .$.y.Q 2 M V V H ! _ ( T T } _ 8 l 9.6.;.) ) 1.g.m.g 8 f g g A R ( ",
"` | | q.b.N ' &.H N N C H C M N N N V H @.Q 2 u #.V.e.' ' $.$.y.G.i.3 V ! I H J ! ! ! ! } } q d E E W ) ) :.s.v.d 8 d d f l F R ",
") | <.f.P.J p.u.! N C H H C M M V n k n H ^ 3 2 3 H H j ' y.u.Z.J.I 2 V I I I H n j D J _ A 8 d x h P W :.,.f.x.i 8 6 : q f c F ",
"q r l R A 0 k ! H s k n n k s s e + O O > t ; + ; 3 ; ; e H V N V 3 = 3 t u e 0 ; ; ; ; 8 6 : 8 * $ q l f x A A < $ O O $ 6 8 8 ",
"l l J ( l 8 : + 2 0 e < = + > 8 2 2 > O + & ; 2 2 2 i a ; e M k j r : ; + + 2 0 k A r 8 g A S F q 7 6 g : 8 i q < ; ; < 2 $ + ; ",
") 7.b.F.b.F l 2 e J T k > + 0 k k k M a r i m [ [ [ A.V.r 0 J J U U m m m d m ( q.5.) S S F J ) t.4.` q.q k D D A N M M M r & q ",
"P ` 5.q.h.f.q.J < k N N 3 > k j j j N A D J _ } 0.0.r.D.a.r H H U ! ! J J ( ( <.<.5.7.` R P P R ) :.7.q.q l J J T J G N N l < i ",
"F P ` :.7.v.F.m.J e n M e r i i i j A A D J T ( } } X.r.r.r N H H U J J J R ( ) <.7.q.7.<.) R P R W ` ` : f ( _ ( J H N N N 2 < ",
"c S F E <.q.K.L.v.j s n e : & q k g z N D J T ( } X.X.0.X.8 k H D J J J J J ( | <.5.q.q.7.1.E R P R ` S $ 8 _ } ! J D H A N 2 : ",
"c c A J :.6.d.x.g.P r k r $ j l k l l N D D J ( } X.X.| ( 2 n D J J J J J J P ) ` 2.5.5.2.` E E E W s.A * 6 D T J J D G N M 8 6 ",
"c c S F :.:.6.8.s.` l < : 8 R c l l l N D J T ( } X.} } ! < 2 2 r D J J J J J R ` 2.<.2.1.) E E ;.3.g.d $ q A N A A A A N N r 8 ",
"l c A F L R W ;.2.` f : w 6 F F A z l g A T ( _ | X.} } ( 2 : i 0 U J J J J J J ) ` :.2.<.) E ` ;.7.n.A $ i N N z z z N N A i 8 ",
"d f c S F L E ;.7.<.q q x 5 c ` E J A D T ! ( } X.X.} } J ; 2 k a ! D D J J J F R ) 2.7.<.) E ;.:.6.z.A $ 8 l A z l l l z N 8 < ",
"$ # q A F R E W 3.7.y 7 w : A s.8.:.R J J J ( } } } ` _ i + ; : ; g l k l D l d d l A D A F R L f 9 8 : $ 6 f l A N N l k l < & ",
"$ # # d h x c v L S $ $ 5 $ : S 7.:.R F F F ( _ ( ( T T k + $ ; $ $ # + # : #     + # + # & 9 *   o # o o : q i j i i 8 8 i : + ",
"8 8 8 < $ q x l d g l A Z g : 6 q < : 8 0 0 0 0 0 8 2 8 < $ $ ; ; : ; $ : g y q d h x 9 * * : q i q 8 8 8 q j j l 2 $ 2 8 8 < < ",
"( ( ( l * v 3.g.f.m.m.L.L.v.P S J i < r j k < : j < 8 s u r 2 8 a M k < g P E E E E E S 9 5 A J A A N A J ( ` r.M.g r D D D J J ",
"T ! ( l 6 F :.g.n.n.m.m.n.x.7.E z k k z D R l : r r k k n n k s s k M 0 x S P E ;.;.P S l : J J D J J R } r.q.b.F.i i D D D D J ",
"J J J l : F 7.n.m.m.K.m.x.s.` D g g l F ( X.T : 8 J m k k j s u u s k 2 l c F E E P v v l : A D D J _ 4.r.a.l.q.a.} r A c l c D ",
"D D D N 6 W 9.s.g.n.n.x.d.6.P l k g A ` a.l.} : A ( l k k j s u u s s 0 x c S L P L c x f : A T R } 5.r.r.t.u.u.q.` 8 g l l l A ",
"A A D A 8 ` 7.8.s.g.n.d.8.;.F g g c J 4.5.r.4.8 l D A M k s s u u s u 8 l x c S F S S h 6 * A q.} X.5.4.X.4.0.r.r.( 6 f l l l x ",
"z z z l 8 F ;.2.7.g.x.s.6.R A l z F ( q.5.v.X.8 8 D J A l k s u u s u < d h l S F S v A 6 * D _ ` X.r.5.} | 0.r.r.T : h l g h l ",
"g g l k : x R W ;.8.d.9.:.P A A F J _ 4.t.v.T < 8 D J G N k k u u a u < q d l P E P P ) l 8 } ` | q.a.r.} | 0.q.r.J < l l g f f ",
"j j g j : h F E ;.6.8.7.` P F F J R | 7.t.t.l * g ! N A N M k j u u e > q q h F ) ) ) ` f j } ` } 5.a.r.4.} } } ' N : g l h f q ",
"j j d q * x S E ;.:.:.:.W R J F F J T 2.t.| g : r N A N A N k k s s p > < 8 d c A R ` ` i 0 l ( ( ( l i ( ' _ ( N ; ; d d d i r ",
"8 : & & $ q q 9 q d d d f f r q r < & g T : & * 6 q r r 2 > 2 2 , 2 2 + O < 0 < ; q i k r 2 2 r i r < ; 2 r e 0 2 ; ; : < : : : ",
"D c l c A J q 6 q D A : # # $ : : 6 6 8 g d f f i e u e ; ; t s s k M N V I G : 8 l q H ! J D J ' ' ' i : : : r l N A m k l A A ",
"R R P P L R F S ` 6.8.f $ : g g g F J ( 7.7.4.( H D H H 8 : u n M V ! ' ' [ ' 0 : 8 i ' _ J J ( 0.r.l.r.6 2 k N l l l c A A S F ",
"E E R L F F P R :.2.8.q # 9 c A A F ( 4.t.5.` A k k M j ; ; s k N H I ! [ #.$.! 8 8 f ! ( J D T } X.X.0.8 k H l g g l x c S J ` ",
"R L S c c c v L W :.:.9 * : q c A F R <.q.` ( A k k M k ; ; s k n V H I ' [ #.&.D : d ( ( J D J J ( ( ( 6 j l k g g l x c S P R ",
"F S c x h h x v P W R 9 % * : c S J ( ( ` T H m j s k k : & 0 j n N C H Q ' [ ..J : 0 ( J D D D J T ( J 8 m k j g g l x c A S F ",
"F v x x f f h x S R P 7 % : l F J R ( ( ( J A m j s k j : & 2 s k M V H Q ! ' [ U : 8 j D D D D D J ( J 8 k g g l l l l l c S F ",
"F S c x f f h x c L F : $ A R F J R ( ( ( ! D N k j j n 2 + 2 s k M C I ! ! ~ [ U : d 0 r J D D D D J A : r g l x x x l l c x x ",
"F F S x h h h x c L P : $ l x A D F ( ( ( ( ( D N n j k : X 2 s k M C H ! ! ] &.! : N j : N D D D J J D : 8 l c S S S c c c F x ",
"x c 9 * 7 9 : : 6 l h $   # & r f g c J J J A M l j a s ; X = 3 t s k N C H ~ ~ n ; : & $ i A N N N N k $ : r q 0 d F A x x x 9 ",
"6 q g x g 8 $ 0 6 : 8 8 8 0 8 2 < 8 u e > u a u e 3 3 3 e e 2 + > p s 1 3 s n M s 2 & 8 j r 8 2 < 8 0 8 8 8 : ; + + 6 q 9 6 # # ",
"P 2.:.:.` S : j A N ! H ! '  .y.p.$.p.n 0 ~ ] ~ ^ Q Q I C V V a C =.=.p s ^ A.~.~.V b =.V.} ( J D D A N J J J A r : : x S v l x ",
":.:.` ` <.) 8 8 N i.~ H ! [ e.V.Y.Z.[ 0 N ^ H V M n V H V B Q o.Q o.o.t t n H ^ H n / [ 0._ ( R J J A A ( } | ` j & 6 A c L :.1.",
"R E ) R E S & : V =.^ ! ~ $.p.V.V.k.' 0 M I C M s p u C V M C Q Q / B ; = e n H ! 0.' ' ( ( _ } T A N A ( q.r.4.q # 6 c F L E E ",
"K L P L x 9 + : H ^ ! ! ' y.V.V.k.#.! a M Q H N M n V H C V H Q Q ] I + ; u H ' 0.0.[ } X.X.0.X.( A l N J } q.` 6 $ 5 f S P E E ",
"S L L v h q & ; M ! ^ ~ #.u.V.V.k.#.H 4 M ^ H V C I Q I H C I Q ^ ] $.t 2 a N ( 0.r.0.0.r.r.0.} J A k N D J ( J : % % 9 l L E L ",
"S L K v h q & ; N J ! ' $.p.V.G.k...V 2 I ~ I H H Q ^ ^ I H I Q ^ o.-.C 3 s M H } 0.r.u.u.u.r.} J N k l A J ( J 6 * * 5 f L L K ",
"S S v c f d : < H J ! ! #.u.G.G.k.[ V 2 Q ] Q I Q ^ ' ' ! Q H I Q @.i.V 3 n n N H ! } r.u.r.&.( A l k l D T _ _ q * : f c L L K ",
"v v v v x f 6 e H H ! ' $.u.G.G.p.' V 2 I O.^ Q ! ~ ' #. .~ Q Q ~ @.=.M s V M M M H ( X.r.r.} J A N N N G T ` ` 8 $ : d L E E L ",
"q 5 x v x f 6 r A H k s ! y.k.V.u.[ H 3 N ^ C H ~ '  .$.$. .! ^ ~ o.O.s e M M M M G ! } X.[ T N N A A D D l k l : : : q F h 8 d ",
"* : q r 8 < ; ; 0 0 + + > s n M N M k 1 ; 1 + 2 k s k k s n s a b n s = . > 2 > > < 3 u r 2 ; ; < e i r 8 : < r 0 8 : 6 8 : # $ ",
"g +.| ` g q g J A j 2 s n M ~ B t V I I t ; 2 a I ] n 3 I =.@.~ Q H C 4 + s M s 8 8 2 j A i 2 < g A D l 8 q ( r.a.( r ' ' J : q ",
"&.0.<.<.` J J J J D N H I ' -.-.s / o.^ H e e I =.A.i.k H.Z.B.-.' ^ ^ C = k H Q ' J N u.D.r.m 8 A A D T ( ' X.4.0.( 8 ' ..} q d ",
"| ` ` ) ( T J J D A A H ! ] @.$.s / ] ~ ^ ~ @.] =.Z.i.n i.Z.B.-.] ^ H I > s ^ N.e.[ ..l.S.r.A < g A A J } X.X.0.0.' 0 M ! k U 0.",
"R J R P J J D D D A A H I ' @.[ u Q @.=./ @.~ Q =.N.i.s -.j.y.$.[ ^ H H 1 I T.Z.r.r.r.l.D.v.D $ r A A D R | q.r.r.( 0 k j m X.&.",
"F J R ( P J J D A A N N H C Q ! p ] N.=.^ Q H Q o.N.-.a $.-.=.#.#.' ! ^ e H X.0.r.u.l.S.D.l.r : r g g A ` } 0.a.r.k > 8 N D D D ",
"J R ) ` ( J J A A N M M u t Q Q s $.@.~ ~ ^ I H ~ -.-.s [ #.[  .$.-.$.@.p G _ } } 0.u.a.l.X.8 8 f g g A J ) X.q.X.2 $ n ' D D D ",
"( ) ` | ( J J G N N n k N [ [ H k =.] ~ ^ ^ Q H ^ -.U.n ' ' ' #.y.B.Z.i.p k ! ( ( ' [ 0.r.r.i : d g h l F R | 4.} < < H D D J R ",
"` ` ` <.` ( ( J A n t t N H J N u y.=./ ^ Q Q H ^ o.-.n ~ ' ' #.p.Z.Z.p.e G J ! ( ' } } 0.X.i $ < l l l D J ( X.0.r 8 N A J ( ` ",
"` ` ` | <.<.| ( N u e M V N H s t -.=.~ ^ H C C Q o.] s #.#.#.$.y.p.p.#.> m J J ( ( } } 0.| R q ; g A z A J E } q.D < l D J ` | ",
"` ) ) ) <.5.<.N s t b Q N H H n t @.=.] ^ H H Q ^ @.n , M ] [ [ $.$.#.' > k H J ( ( } X.! l l j : z A A D J E _ | J ; g J ( | <.",
"R P A A P F d $ + > 4 e 3 e p t > a s a t e a n n V e ; ; 2 2 2 2 3 0 e + 2 u u r j A m : + $ $ : f g k A J J A D l ; 0 l J J ( ",
"8 r 0 8 : $ : 2 = ; 2 3 e p C o.=.I + O O O O - Y a ; > 3 ^ y.y.[ u O O ; t s j j m N N m : & < q 8 < : < 0 8 < ; & : 2 < > : 2 ",
"4.| | } i : H =.Q ~ ^ H Q =.=.N.!.T.o.C Q ] e a I.O.M M ! V.J.E.Q.Z.> 2 ! #.[ ! ! [ e.u.e.r : c 4.<.( F R ) ) J 8 < A D D J ( } ",
"b.q.4.J 6 : ] U.U.Z.-.^ H Q ^ o.i.U.R.W.!.H.M 3 -.i.'  .$.&.e.u.B.U ; > ! ! H N D ! ( ` } j : S q.q.q.5.<.<.| R 8 8 D A J ( 5.t.",
"v.t.b.q.A 0 ^ U.Z.] V n n N I Q H I ~ i.N.j.V 1 @.[ ~ '  .&.y.$.&.H @ 0 Q H N V D ! ! ( } J < S n.n.g.7.5.5.<.( q 8 A A F R <.t.",
"5.q.S.b.<.i I B.^ n n n n N H Q H ^ ^ ] -.=.e > Q ] ' ' [ #.$.#.' V ; C Q M N H H J J ! } D : d s.x.s.2.2.7.2.) i 8 A N A J ( 4.",
"5.5.<.5.` r H $.I M n n M V H H I ^ I ~ @.I = = H &. .' ] [ .. .! V ; n N V V H H J J T _ l : d :.6.6.,.:.2.7.5.f j D N A F P ` ",
":.<.` :.( e I @.H M n n N H C V H ^ C Q @.H ; ; Q &.[ ' ' '  .' Q V ; n V V C H H ! J ! ` A : x 7.8.,.:.:.7.f.v.A f D N N D J ) "
};
