/* XPM */
static char *south_wall[] = {
/* columns rows colors chars-per-pixel */
"64 64 134 2 ",
"   c #342622",
".  c #3D2C26",
"X  c #3E2E28",
"o  c #412E27",
"O  c #412F28",
"+  c #443027",
"@  c #45322A",
"#  c #4B352C",
"$  c #4E382E",
"%  c #50372C",
"&  c #533A2E",
"*  c #593E2F",
"=  c #473730",
"-  c #493730",
";  c #4D3A32",
":  c #4D3B3B",
">  c #533D32",
",  c #593E31",
"<  c #5A402F",
"1  c #554136",
"2  c #5B4335",
"3  c #564339",
"4  c #5B4539",
"5  c #5D4A3D",
"6  c #624634",
"7  c #654936",
"8  c #694B37",
"9  c #614738",
"0  c #684738",
"q  c #634B3C",
"w  c #6A4E3C",
"e  c #724E3A",
"r  c #65503F",
"t  c #6C503E",
"y  c #72533D",
"u  c #7A563C",
"i  c #7C583F",
"p  c #574741",
"a  c #5E4C40",
"s  c #634E41",
"d  c #6A4F41",
"f  c #665144",
"g  c #6C5344",
"h  c #6F5847",
"j  c #66534A",
"k  c #6B5649",
"l  c #6B5849",
"z  c #6B594A",
"x  c #6C594A",
"c  c #6E584A",
"v  c #6E594B",
"b  c #6D5A4B",
"n  c #705441",
"m  c #725542",
"M  c #755741",
"N  c #745744",
"B  c #795742",
"V  c #765842",
"C  c #705947",
"Z  c #775945",
"A  c #775A46",
"S  c #7C5B44",
"D  c #7B5C47",
"F  c #705748",
"G  c #735C4A",
"H  c #745C4B",
"J  c #725B4C",
"K  c #755E4E",
"L  c #785C48",
"P  c #795C48",
"I  c #7A5E4B",
"U  c #7C5F4B",
"Y  c #655450",
"T  c #6D5B50",
"R  c #735E51",
"E  c #7B5F50",
"W  c #76604F",
"Q  c #79614F",
"!  c #7C604D",
"~  c #7C614E",
"^  c #756153",
"/  c #7B6151",
"(  c #7C6353",
")  c #7E6656",
"_  c #7E6857",
"`  c #7C6659",
"'  c #7E695A",
"]  c #815E45",
"[  c #815E49",
"{  c #836146",
"}  c #83634C",
"|  c #89664B",
" . c #8C684D",
".. c #916C4E",
"X. c #806552",
"o. c #816755",
"O. c #886751",
"+. c #836855",
"@. c #836956",
"#. c #836A57",
"$. c #8C6B54",
"%. c #806758",
"&. c #816958",
"*. c #846C59",
"=. c #846C5B",
"-. c #876D5B",
";. c #856E5E",
":. c #8A6E5B",
">. c #916C50",
",. c #83705F",
"<. c #89705D",
"1. c #8D715D",
"2. c #937155",
"3. c #987152",
"4. c #94745D",
"5. c #99785E",
"6. c #856E62",
"7. c #867161",
"8. c #8B7161",
"9. c #8C7463",
"0. c #8F7866",
"q. c #917664",
"w. c #937967",
"e. c #947B67",
"r. c #997861",
"t. c #977E69",
"y. c #947C6B",
"u. c #997E6D",
"i. c #99806B",
"p. c #9E8473",
"a. c #A08771",
"s. c #A38973",
"d. c #A58B79",
"f. c #A88E7C",
/* pixels */
"s s s f l x x l f f 5 4 4 5 f g g j g k G x > J a.s.u.<.G 2 1 2 g k $ o # , 2 6 t w 2 2 6 t V S S I I A m w 0 q q A > # q s s s ",
"s s s f k x l 5 3 s 5 5 5 s j j j x x J J x ; x s.a.y.;.C r 5 5 q k > O # 2 9 w A S y 8 w y M m A U I S M t t m g I > + f f f f ",
"s 5 s x l f f # O ; ; 4 5 3 5 f f j W ) K 1 + q i.e.@.Q k k q q k g & + 2 m m M A D S y y y t t g I U ~ I D ~ I g 9 # @ f k f j ",
"@ ; 3 3 5 ; # # # + o @ @ . + # # $ > 2 2 # & 2 ) &.-.K H Q C k / 0 % o $ 2 2 > 2 w y y y w q q t A ~ o.o.@.-.X.g 4 + @ s f 4 > ",
"@ @ @ @ ; ; 3 ;.8./ g g 4 # $ & 2 2 6 8 6 # & & $ > q d d g q 5 q > $ $ # o o o + + # $ # + o + $ > 4 q d s x g 9 , $ @ $ > > $ ",
"$ $ $ a j k ) i.d.y.;.q.q.q # $ $ > K ] ] w w 6 6 w w w > % & q m 7 6 8 6 # > 0 w t w N t 2 2 9 # # & & 2 k ` ;.o.I q 4 G -.7.;.",
"1 @ @ j R ` 9.p.f.p.-.8.u.8.> & $ : R S { $.5.$.$.4.5.5.g & t ~ } y B >.] & 9 S D D S M w w t S > ; 4 5 q K ' 0.y.-.K K / ' &.;.",
"x ; 3 / ;.8.0.w.q.-.H I :.u.d > > 5 U S S } $.2.2.$.O.$.I & g D S 7 6 S $.t m S U S t 6 6 0 7 t 2 > 4 2 4 k K ) 8.@./ K K K K &.",
"x x x J / ) ` ) o.o.K H o.q.q $ & g S S S ] } $.$.| { { X.> 2 S S w 7 2 7 8 y S S m 7 2 6 7 6 w > > 2 1 2 d H ) :.:.@./ K x g &.",
"T J x l x J J / -.:.I H ( 8.q # > D } { S ] ] } } { { D F > # S S S w 6 2 2 6 w w 7 6 < 2 2 6 w $ @ > > 1 q G X.1.:.@.Q / / K @.",
"R R J x x x x o.:.:.I H H @.d $ g } ....{ ] ] } { S V 7 , $ > B S S y 8 6 2 < * * * * * < 2 6 y * @ > > 1 q K 1.4.4.@.( ) @.-.&.",
"j ^ ^ J J J K o.:.:.X.I ~ I $ + S | ..3...| | | } | M * & + ; U ] ] S y 7 2 < * & & * 2 6 7 y S 2 + > > 1 f X.4.r.4.o.@.@.;.:.-.",
"j ^ ' ^ J J / @.@.-.@.o.~ F + O M { } ..3.3... .| | m & + O X 2 S } } ] S 8 2 * & * 2 6 2 6 S O.2 # 1 > 4 g X.4.r.4.@.o.&.-.-.7.",
"3 ^ R x x J K ( @.@.o.G g ~ $ o y ] S { |  .} ] | } 0 & # X . X 2 S D A { S w 0 q t w 0 2 2 D O., # 2 4 5 g Q :.4.:.) / / ( / ) ",
"@ a s f f k R / &.o.F q g G $ + y S y y S S w 2 0 q & & & + O . @ > > > 1 2 1 2 4 2 1 > > > q 2 @ @ 1 > > q H Q X.I K K J K x j ",
"@ @ @ ; @ @ ; > > $ + O $ > # + > , & > 2 2 & & # # # & > & , & > 2 , , 7 N $ q H q > $ # O + % # . @ # > > 2 > > ; > > > > ; - ",
"q # # $ > 4 9 6 7 > $ > 2 w & # # w I I I F w 8 w w 6 9 , % 2 g ~ X.g q t O.[ :.9.:.g w d & % , # o > g F g g m I } 7 f R x J J ",
"x > q q f k k C O.8 2 g g O.0 + & m I F m w 7 6 6 0 6 w I > q F C g 9 4 q H 1.q.1.@.q g @.g > , # # q g g g g I @.-.2 3 J x R ) ",
"g @ 4 4 4 5 5 5 k g q w q F y # 2 w m m w 7 2 * * * < 6 t 2 9 A C t 2 2 9 g Q -.1.X.q H :.8.E 6 & $ 0 q g I k ~ -.O.2 + s k J R ",
"J @ 1 5 4 4 2 2 4 g F w q w g $ 7 7 8 w w 7 6 2 2 < * 6 7 & q I I F 2 * 2 9 t H @.~ g X.8.1.1.} , & 2 2 g } I S X.O.q + 3 q x J ",
"( > > d 4 2 2 2 2 t g 0 q q g > 8 w y y t w w 6 6 6 6 8 7 # q I I g 2 & * 2 q g I H F I o.X.I U > $ 2 2 0 t A } } O.w > 1 > 4 d ",
"( 4 1 f 5 2 2 1 2 2 q 6 6 q k 2 6 S { { S M y 7 7 6 6 7 6 # S O.} A 4 & * 2 2 q t F H G H G F I > + 2 2 2 w g S ~ U 1 4 2 > > 5 ",
"( 9 4 s 4 2 2 2 2 2 2 2 q g k g 4 } | | } S S w 7 6 6 6 w , A $.$.} q 2 2 2 q t H ) ) H G g g ) 3 O 2 2 2 0 q g U g + 5 4 > > 4 ",
"/ 4 5 5 4 4 4 4 5 q q 2 g K K K 4 t } | } } { U y w 8 6 w 7 > U } } m q t q t C o.:.-.Q k q q K g + ; 2 2 q w g I 6 + 1 g q d f ",
"q + ; 4 5 q q d g k k d q 5 5 g 1 4 F } } } U m 2 2 t 6 , & & 0 9 0 q q F I / ) ) K K K J g g k > + . O @ $ 2 g F $ + @ > s f d ",
"> + . X ; 3 1 3 q d 4 > @ # $ + $ > 2 2 2 1 & + o o # % # # + + # + o + ; > > 3 ; @ @ 5 j 4 ; $ + $ & $ # O + > 2 # + O O # + O ",
", & $ o . o + > > $ + $ @ 1 ( o.( w g k G A 6 > 9 F g g F F q 2 g F 2 + + o ; 3 # O @ @ 3 2 % $ $ w M w 6 2 q q w y 0 & > 2 , & ",
"C F y , % ; j 6.:.x 5 q ; 3 &.e.q.-.I F k } 8 2 ( ( G / -.:.:.-.q.:.N # > 4 s f f - @ 3 ` -.( 4 2 H A M t 7 0 0 q V O.4 G ~ H C ",
"F I O.6 , d ^ ` o.E K I > 5 8.e.1.) C g d H y 0 k k k x K / / / ) / k # 3 f a j ^ ; @ Y 7.8.e.d > C A V y M 7 w q t } 0 H X.I g ",
"F I :.2 q f x g g J / x ; ; -.q.:.X.k d q q g t g k x G K K K G x G G # 3 s 5 l ` j p T 0.0.8.q @ w V y w M w y y y S g I I F 9 ",
"A ~ :.q g q q 4 q d g q > $ / e.:.( F d q 2 2 2 q k Q @.) Q I G g g K ; 3 a 5 k l j j ^ 8.w.0.g + q S 7 7 6 6 y M M t q Q H g q ",
"C I I F I k 4 2 2 2 9 q > q o.<.@.I g g q 2 2 2 2 g Q :.-.@.@.( k G &.3 @ a j T x j R -.9.9.;.q ; g { 7 6 2 6 7 m U 6 & H I w w ",
"m F g q g @.G q 4 q g g > 2 Q o.( F q q q 2 2 2 q g I :.1.<.<.@.K / <.k @ # 4 f R ^ -.0.0.8.) ; > F S 7 2 6 7 t S } m & g A w w ",
"F g g 2 s -.@.( H K E d @ + G I g g g 0 q q q q C G ) 1.q.q.1.@.R / &.q # @ @ ; j ) 6.0.0.-.k # ; m y 7 6 6 7 t D } w # g F w w ",
"q 2 2 $ ; s g I k 3 ; O . @ f g q q k 4 1 2 4 q k G K ) @.Q G 4 + $ 1 # $ # . @ 4 f R 8.-.J q + > g m w 7 7 7 t D I > . 2 q q 0 ",
"% & , & # # # 2 q 4 4 1 > ; $ 2 & $ > $ # + # + 1 5 4 ; # # 4 g 2 * * $ $ > + O # + @ 5 1 @ # + ; > # & @ @ @ > q 2 # + + # > % ",
"S O.1.O.y 6 6 o.1.q.q.:.) x 4 o.Q A [ 8 g g S 2 g G G G m A X.-.@.[ e , > q 5 x / x 4 4 d > 4 2 > > 2 # o . . . . # * 2 2 m } m ",
"S ] } ] B 8 y O.X.:.-.( G q ; G Q k ~ m d g G f g k C K ( I I ~ ~ } A & 1 k f J k R k f J q x ^ k k G g w w , & + $ q m V M S ~ ",
"y u S S y y } ~ F Q K g q 5 > g G k F k j f q x G G k k G I H F M U M $ ; ' k s 5 5 s j ) s 4 R f g j k k H 8 , # 3 :.$.} D i y ",
"u u S S y w M y y C g q r q 1 d G G k G H G f g G C q 0 g I U D U } U $ ; ^ f s 5 5 f ^ 9.f + f G J G k d q w , # 3 4.2.$.S S u ",
"u u i S u e w w t t w q g k 1 4 G G G I ( ( G C H k q q g I } $.O.} O.> # s s 5 5 f f ) 9.k # R ;.) k k g q q 2 o s 4.2.2.| i u ",
"u u i u u y t y w q q w k G 4 5 C k F H ( / Q H C F t g M ~ { } ~ D ~ > ; a 5 5 5 f x ) 0.x 4 -.8.&.g q f q w 4 o k 4.2.2...] i ",
"u u i u u y y y t t g g h H 1 q k k k k Q ) Q I H C m m V D m m m m A # 3 f 5 5 5 f k ' w.R ) ;.;.;.J g q q g 4 o 4 2.>.....| { ",
"i u u u u u S S A A F q g G ; 1 f G G k Q &./ g g H H F m m t w w t w # > j g f f s 5 J y.R ` ' ) ) J k j f g 4 # 2  . .| | | | ",
"{ S i i S S U } X.X.1 X # @ . ; 5 g d q q J / > ; g g g H I K m w w q & ; 3 ; ; ; 1 ; 4 ' f k x j 5 ; @ @ @ # # o * ] { { { ] { ",
", , * > & $ $ > 3 4 $ + # o . @ # > > > + ; 4 > $ + # > 4 4 1 > 1 > & $ # @ . . . @ # X # # # # # @ + # + + + $ # o & > > * & > ",
"& # 1 k q 2 4 2 2 $ > d g s q 5 g -.-.;.q w m A U 2 2 G I K F k K H k C K ) H q 2 j ^ k > 4 F H g > + $ 2 d 7 w F 9 > > , 2 > > ",
"I > 3 j q s j j x ; 1 k ^ J q q f x J ) k k F m O.H > H X.@.) H H g C ) @.@.:.H g J ` ' s 4 K ) F & + q x ` G J 6.( 2 q @.$.-.~ ",
"G $ @ 5 3 3 5 5 f = ; 5 f s 4 5 s f j f x f g k I ~ > d Q ) K G k t k Q @.@.Q g r k / ;.-./ ) ) d $ + k R R l J 6./ & 3 -.:.-.H ",
"G & . ; 1 1 4 5 f ; ; 4 1 > ; > 2 s j f q q g k x f $ # 4 G G C k t g H X.) g r g g G / _ ) / ) ) d # j R x l J ' ;.> ; &.9.-.( ",
"/ 4 o # 3 3 5 j x ; @ 5 > $ $ ; > 4 s s q q g x x k g d 1 > 5 g g t g H ) Q g q q g q r C g h Q @.G $ j R x R ^ ` ;.3 3 &.0.0.9.",
"K 2 + ; 3 4 5 f x 1 X 4 3 > ; > > 1 5 5 5 q J ) &./ J R K k 2 2 q t k H Q H g q q 2 2 2 9 9 q g k 1 ; k x J ) ) ' ^ ; > J ;.w.8.",
"j & # 1 1 3 4 s ) 1 @ 4 3 1 1 1 3 5 f 4 2 5 J ;.9.8.;.` %.K G k q t g H h G g q 9 2 * < 2 2 q t 4 O @ s f k ) -.-.g @ # q x K R ",
"g & # 1 3 1 3 5 k ; X 4 5 4 3 2 5 d g 5 1 4 f / :.0.8.%.&.R G k g g C Q K g q q 2 * * * < 2 m ~ d + @ 5 a s R -.;.f # # 5 s f j ",
"f $ > s 4 1 3 5 s ; X 1 a 5 4 4 5 f d q 4 q f J %.&.&.-.-.R f > 1 g C H g q q 9 2 * < 2 7 t ~ -.H + + 5 a a s x ^ x > ; s s s s ",
"5 $ 5 W f 4 4 5 s > O @ s s 5 5 5 d d q q q g J ) -.-.:.8./ > # # 2 g g q q q 9 9 6 7 w t m ~ X.K # @ 3 3 j s s f x 2 3 g 5 5 3 ",
"@ o ; s s a f a 5 3 # X ; a 3 1 ; > > @ ; 5 5 s g k x J G g 6 > # . ; > > > > > $ $ 2 q 0 q q k q + . @ @ > ; ; 3 > O # 1 ; $ + ",
"# # + + + @ @ X . + # > 1 > > $ @ . # # # # O ; > > > > $ , 6 2 & +   . . + & > > > > 4 2 # + # $ # O o # & & > 2 $ . @ # $ > & ",
"q d g x J ) J & 2 2 2 x -.-.:.-.s 4 s f x d $ f ) / -.o.( Q H g w 4 + 2 w m A g q q 0 g B & > k k g 5 4 k / @.@.@.g $ 2 > f J k ",
"_ ' ,.9.9.y.0.g k s > d x ^ ;.8.x 5 5 f J k + 3 ) ) -.-.) K G k k k # 2 g g g q q 9 4 4 m 0 q I H g q q k K K G H k ; 4 x J J W ",
"W ) ' ,.,.' ) K f f d q f j J J x 5 5 s R R # ; / @.-.&.Q k k F H I > > g g g q 0 q 6 2 2 2 6 A I k q g g g g g G g 2 J R f f f ",
"l x ^ ) ) ^ J j s s f q q s g g x f 5 s x -.> ; K ) &.) C g k H ~ ( > 1 g g g w t q 2 2 2 & * A ~ I C k g g g g k g 1 J j q q r ",
"j x x x x l f f 5 q q 5 5 q f f x x s 5 f J > ; x @.-.) g q q k H H & > w g g t q 2 2 * * & * m } ~ I H F F g q q g # 5 q 5 q r ",
"j j f f j j f f q f j 2 5 q q f G G f s k k ; ; / 1.1.-.G q 2 q k g $ $ q 0 0 q 9 2 * & * * 6 m ~ U I H C F g 0 q k ; 1 q q r r "
};
